!!!id: 18xx:2876
!!!COM: Moniuszko, Stanisław
!!!OTL: Studia berlińskie III – Les pontons des Cadix – Andantino
!!!PDT:
!!!SMS-siglum: PL-Wtm
!!!SMS-shelfmark: R 759/M
!!!NIFC-rismID: 1001097412
!!!URL-scan: http://repozytorium.nifc.pl/skany/pl-wtm-nut--r759m
!!!ONB-nifc: UWAGA: od skanu 0009. Części Kwintetu: 1. Agitato, 2. Andantino, 3. Allegro agitato
!!!SMS-variant:
!!!SMS-altvar:
!!!OMD:Andantino.
**kern	**dynam	**kern	**dynam	**kern	**text	**dynam	**kern	**text	**dynam	**kern	**text	**dynam	**kern	**text	**dynam	**kern	**text	**dynam	**kern	**dynam	**kern	**dynam	**kern	**dynam	**kern	**dynam	**kern	**dynam	**kern	**dynam	**kern	**dynam
*group4	*	*group4	*	*group3	*	*	*group3	*	*	*group3	*	*	*group3	*	*	*group3	*	*	*group2	*	*group2	*	*group2	*	*group1	*	*group1	*	*group1	*	*group1	*
*part14	*part14	*part13	*part13	*part12	*part12	*part12	*part11	*part11	*part11	*part10	*part10	*part10	*part9	*part9	*part9	*part8	*part8	*part8	*part7	*part7	*part6	*part6	*part5	*part5	*part4	*part4	*part3	*part3	*part2	*part2	*part1	*part1
*staff14	*	*staff13	*	*staff12	*staff12	*	*staff11	*staff11	*	*staff10	*staff10	*	*staff9	*staff9	*	*staff8	*staff8	*	*staff7	*	*staff6	*	*staff5	*	*staff4	*	*staff3	*	*staff2	*	*staff1	*
*I"CB.	*	*I"Vcello. A.	*	*I"Cockney.	*	*	*I"Gonzalo.	*	*	*I"Savenay	*	*	*I"Hélèna	*	*	*I"Olivia.	*	*	*I"Viola. A	*	*I"V. 2do A	*	*I"V. 1mo A	*	*I"Vcello. B	*	*I"Viola. B.	*	*I"V. 2do B.	*	*I"V. 1mo B	*
*clefF4	*	*clefF4	*	*clefF4	*	*	*clefF4	*	*	*clefC4	*	*	*clefC3	*	*	*clefC1	*	*	*clefC3	*	*clefG2	*	*clefG2	*	*clefF4	*	*clefC3	*	*clefG2	*	*clefG2	*
*Trd0c0	*	*	*	*	*	*	*	*	*	*	*	*	*	*	*	*	*	*	*	*	*	*	*	*	*	*	*	*	*	*	*	*
*k[f#c#g#]	*	*k[f#c#g#]	*	*k[f#c#g#]	*	*	*k[f#c#g#]	*	*	*k[f#c#g#]	*	*	*k[f#c#g#]	*	*	*k[f#c#g#]	*	*	*k[f#c#g#]	*	*k[f#c#g#]	*	*k[f#c#g#]	*	*k[f#c#g#]	*	*k[f#c#g#]	*	*k[f#c#g#]	*	*k[f#c#g#]	*
*M3/8	*	*M3/8	*	*M3/8	*	*	*M3/8	*	*	*M3/8	*	*	*M3/8	*	*	*M3/8	*	*	*M3/8	*	*M3/8	*	*M3/8	*	*M3/8	*	*M3/8	*	*M3/8	*	*M3/8	*
=1	=1	=1	=1	=1	=1	=1	=1	=1	=1	=1	=1	=1	=1	=1	=1	=1	=1	=1	=1	=1	=1	=1	=1	=1	=1	=1	=1	=1	=1	=1	=1	=1
!!LO:TX:t=P:problem:znaki przykluczowe zapisane na początku cz. I Agitato (do tego miejsca odnoszą się notatki o umiejscowieniu znaków przykluczowych)
!	!	!	!	!	!	!	!	!	!	!	!	!	!LO:TX:t=P:problem:znaki przykluczowe:F#,c#,G#	!	!	!LO:TX:t=P:problem:znaki przykluczowe:f#,cc#,g#	!	!	!LO:TX:t=P:problem:znaki przykluczowe:F#,c#,G#	!	!LO:TX:t=P:problem:znaki przykluczowe:f#,cc#,g#	!	!LO:TX:t=P:problem:znaki przykluczowe:f#,cc#,g#	!	!	!	!LO:TX:t=P:problem:znaki przykluczowe:F#,c#,G#	!	!LO:TX:t=P:problem:znaki przykluczowe:f#,cc#,g#	!	!LO:TX:t=P:problem:znaki przykluczowe:f#,cc#,g#	!
4.r	.	8AA/	.	4.r	.	.	4.r	.	.	4.r	.	.	4.r	.	.	4.r	.	.	8A/	p	8c#/	p	8e/	p	4.ryy	.	4.ryy	.	4.ryy	.	4.ryy	.
.	.	8r	.	.	.	.	.	.	.	.	.	.	.	.	.	.	.	.	8r	.	8r	.	8r	.	.	.	.	.	.	.	.	.
.	.	8A\	.	.	.	.	.	.	.	.	.	.	.	.	.	.	.	.	8A/	.	8c#/	.	8e/	.	.	.	.	.	.	.	.	.
=2	=2	=2	=2	=2	=2	=2	=2	=2	=2	=2	=2	=2	=2	=2	=2	=2	=2	=2	=2	=2	=2	=2	=2	=2	=2	=2	=2	=2	=2	=2	=2	=2
4.r	.	8AA/	.	4.r	.	.	4.r	.	.	4.r	.	.	4.r	.	.	8r	.	.	8A/	.	8c#/	.	8e/	.	4.ryy	.	4.ryy	.	4.ryy	.	4.ryy	.
.	.	8r	.	.	.	.	.	.	.	.	.	.	.	.	.	8r	.	.	8r	.	8r	.	8r	.	.	.	.	.	.	.	.	.
.	.	8A\	.	.	.	.	.	.	.	.	.	.	.	.	.	8e/	O	.	8A/	.	8c#/	.	8e/	.	.	.	.	.	.	.	.	.
=3	=3	=3	=3	=3	=3	=3	=3	=3	=3	=3	=3	=3	=3	=3	=3	=3	=3	=3	=3	=3	=3	=3	=3	=3	=3	=3	=3	=3	=3	=3	=3	=3
4.r	.	8AA/	.	4.r	.	.	4.r	.	.	4.r	.	.	4.r	.	.	4cc#\	ciel!	.	8A/	.	8c#/	.	8e/	.	4.ryy	.	4.ryy	.	4.ryy	.	4.ryy	.
.	.	8r	.	.	.	.	.	.	.	.	.	.	.	.	.	.	.	.	8r	.	8r	.	8r	.	.	.	.	.	.	.	.	.
.	.	8E\	.	.	.	.	.	.	.	.	.	.	.	.	.	8b\	ce-	.	8B/	.	8d/	.	(8g#/	.	.	.	.	.	.	.	.	.
=4	=4	=4	=4	=4	=4	=4	=4	=4	=4	=4	=4	=4	=4	=4	=4	=4	=4	=4	=4	=4	=4	=4	=4	=4	=4	=4	=4	=4	=4	=4	=4	=4
!	!	!LO:TX:t=P:problem:brak zakończenia łuku na odwrocie strony	!	!	!	!	!	!	!	!	!	!	!	!	!	!	!	!	!	!	!	!	!	!	!	!	!	!	!	!	!	!
4.r	.	[4.AA/	.	4.r	.	.	4.r	.	.	4.r	.	.	8r	.	.	8a\L	-lui	.	(>8c#/L	.	(>8c#/L	.	8a\L	.	4.ryy	.	4.ryy	.	4.ryy	.	4.ryy	.
.	.	.	.	.	.	.	.	.	.	.	.	.	8r	.	.	8g#\J	.	.	8B/	.	8d/	.	8b\	.	.	.	.	.	.	.	.	.
.	.	.	.	.	.	.	.	.	.	.	.	.	8a\	Hé-	.	8gn\	que	.	8A/J)	.	8e/J)	.	8cc#\J)	.	.	.	.	.	.	.	.	.
!!LO:PB:g=original
=5	=5	=5	=5	=5	=5	=5	=5	=5	=5	=5	=5	=5	=5	=5	=5	=5	=5	=5	=5	=5	=5	=5	=5	=5	=5	=5	=5	=5	=5	=5	=5	=5
4.r	.	8AA/]	.	4.r	.	.	4.r	.	.	4.r	.	.	4dd\	-las!	.	(>4f#/	j'ai-	.	8d\	.	8f#/	.	(4.dd\	.	4.ryy	.	4.ryy	.	4.ryy	.	4.ryy	.
.	.	8r	.	.	.	.	.	.	.	.	.	.	.	.	.	.	.	.	8r	.	8r	.	.	.	.	.	.	.	.	.	.	.
.	.	8A\	.	.	.	.	.	.	.	.	.	.	16a\LL	c'eſt	.	8fn/)	.	.	8d\	.	8fn/	.	.	.	.	.	.	.	.	.	.	.
.	.	.	.	.	.	.	.	.	.	.	.	.	16b\JJ	.	.	.	.	.	.	.	.	.	.	.	.	.	.	.	.	.	.	.
=6	=6	=6	=6	=6	=6	=6	=6	=6	=6	=6	=6	=6	=6	=6	=6	=6	=6	=6	=6	=6	=6	=6	=6	=6	=6	=6	=6	=6	=6	=6	=6	=6
4.r	.	8AA/	.	4.r	.	.	4.r	.	.	4.r	.	.	8cc#\	moi	.	8e/	-me	.	8c#|\	.	8e/	.	8cc#\)	.	4.ryy	.	4.ryy	.	4.ryy	.	4.ryy	.
.	.	8r	.	.	.	.	.	.	.	.	.	.	8r	.	.	8r	.	.	[4e^<\	.	8r	.	8r	.	.	.	.	.	.	.	.	.
!	!	!	!	!	!	!	!	!	!	!	!	!	!	!	!	!LO:TX:t=P:problem:16\right	!	!	!	!	!	!	!	!	!	!	!	!	!	!	!	!
.	.	8AA/	.	.	.	.	.	.	.	.	.	.	8a\	c'est	.	16cc#\LL	ce-	.	.	.	8e/	.	8cc#\	.	.	.	.	.	.	.	.	.
.	.	.	.	.	.	.	.	.	.	.	.	.	.	.	.	16dd\JJ	.	.	.	.	.	.	.	.	.	.	.	.	.	.	.	.
=7	=7	=7	=7	=7	=7	=7	=7	=7	=7	=7	=7	=7	=7	=7	=7	=7	=7	=7	=7	=7	=7	=7	=7	=7	=7	=7	=7	=7	=7	=7	=7	=7
4.r	.	4AA/	.	4.r	.	.	4.r	.	.	4.r	.	.	16g#\LL	moi	.	4ee\	-lui,	.	8e\]	.	8d/	.	8b\	.	4.ryy	.	4.ryy	.	4.ryy	.	4.ryy	.
.	.	.	.	.	.	.	.	.	.	.	.	.	16f#\J	.	.	.	.	.	.	.	.	.	.	.	.	.	.	.	.	.	.	.
.	.	.	.	.	.	.	.	.	.	.	.	.	8e\J	.	.	.	.	.	[4e^<\	.	8r	.	8r	.	.	.	.	.	.	.	.	.
.	.	8AA/	.	.	.	.	.	.	.	.	.	.	16d\LL	qu'	.	16b\LL	que	.	.	.	8d/	.	8b\	.	.	.	.	.	.	.	.	.
.	.	.	.	.	.	.	.	.	.	.	.	.	16e\JJ	il	.	16cc#\JJ	.	.	.	.	.	.	.	.	.	.	.	.	.	.	.	.
=8	=8	=8	=8	=8	=8	=8	=8	=8	=8	=8	=8	=8	=8	=8	=8	=8	=8	=8	=8	=8	=8	=8	=8	=8	=8	=8	=8	=8	=8	=8	=8	=8
!	!	!LO:TX:t=P:problem:mixed beam	!	!	!	!	!	!	!	!	!	!	!	!	!	!	!	!	!	!	!	!	!	!	!	!	!	!	!	!	!	!
4.r	.	8AA/L	.	4.r	.	.	4.r	.	.	4.r	.	.	8.c#\	ai-	.	8a\	j'ai-	.	4e\]	.	16c#/LL	.	(4cc#\	.	4.ryy	.	4.ryy	.	4.ryy	.	4.ryy	.
.	.	.	.	.	.	.	.	.	.	.	.	.	.	.	.	.	.	.	.	.	16d/JJ	.	.	.	.	.	.	.	.	.	.	.
.	.	8A\J	.	.	.	.	.	.	.	.	.	.	.	.	.	16a\	-me	.	.	.	4e/	.	.	.	.	.	.	.	.	.	.	.
.	.	.	.	.	.	.	.	.	.	.	.	.	16c#\	-me	.	16a\	dans	.	.	.	.	.	.	.	.	.	.	.	.	.	.	.
.	.	8r	.	.	.	.	.	.	.	.	.	.	16e\	j'ai	.	16g#\	un	.	16d\LL	.	.	.	16b\LL	.	.	.	.	.	.	.	.	.
.	.	.	.	.	.	.	.	.	.	.	.	.	16e\	can-	.	16a\	pa-	.	16c#\JJ	.	.	.	16a\JJ)	.	.	.	.	.	.	.	.	.
=9	=9	=9	=9	=9	=9	=9	=9	=9	=9	=9	=9	=9	=9	=9	=9	=9	=9	=9	=9	=9	=9	=9	=9	=9	=9	=9	=9	=9	=9	=9	=9	=9
4.r	.	8BB/	.	4.r	.	.	4.r	.	.	4.r	.	.	8a\	-sé	.	8.cc#\L	-reil	.	8B/	.	8f#/	.	8a/	.	4.ryy	.	4.ryy	.	4.ryy	.	4.ryy	.
.	.	8r	.	.	.	.	.	.	.	.	.	.	16a\LL	son	.	.	.	.	8r	.	8r	.	8r	.	.	.	.	.	.	.	.	.
.	.	.	.	.	.	.	.	.	.	.	.	.	16g#\JJ	.	.	16b\Jk	.	.	.	.	.	.	.	.	.	.	.	.	.	.	.	.
.	.	8BB/	.	.	.	.	.	.	.	.	.	.	16f#\LL	dan-	.	16a\LL	dan-	.	8A/	.	(>8d#X/	.	(8f#/	.	.	.	.	.	.	.	.	.
.	.	.	.	.	.	.	.	.	.	.	.	.	16d#X\JJ	.	.	16f#\JJ	.	.	.	.	.	.	.	.	.	.	.	.	.	.	.	.
*	*	*	*	*	*	*	*	*	*	*	*	*	*	*	*	*	*	*	*	*	*	*	*	*	*clefC4	*	*	*	*	*	*	*
=10	=10	=10	=10	=10	=10	=10	=10	=10	=10	=10	=10	=10	=10	=10	=10	=10	=10	=10	=10	=10	=10	=10	=10	=10	=10	=10	=10	=10	=10	=10	=10	=10
8r	.	8EE/	.	4.r	.	.	8r	.	.	4.r	.	.	4e\	-ger.	.	4e/	-ger.	.	8G#/	.	8e/)	.	8B/)	.	(4e\	p	(4.bn\	p	4ee\	p	(8gg#\L	p
8r	.	8r	.	.	.	.	8r	.	.	.	.	.	.	.	.	.	.	.	8r	.	8r	.	8r	.	.	.	.	.	.	.	8ggn\	.
8Gn\	.	8Gn\	.	.	.	.	8Gn\	C'est	.	.	.	.	8r	.	.	8r	.	.	8r	.	8r	.	8r	.	8d\	.	.	.	[8gn/	.	8ffn\J	.
=11	=11	=11	=11	=11	=11	=11	=11	=11	=11	=11	=11	=11	=11	=11	=11	=11	=11	=11	=11	=11	=11	=11	=11	=11	=11	=11	=11	=11	=11	=11	=11	=11
4Cn\	.	4E\	.	4.r	.	.	4e\	par	.	4.r	.	.	4.r	.	.	4.r	.	.	4.Gn/	.	4.r	.	4.r	.	4cn\)	.	4ccn\)	.	4g/]	.	4ee\)	.
8D\	.	8Fn\	.	.	.	.	8d\	un	.	.	.	.	.	.	.	.	.	.	.	.	.	.	.	.	8r	.	8r	.	8r	.	8r	.
=12	=12	=12	=12	=12	=12	=12	=12	=12	=12	=12	=12	=12	=12	=12	=12	=12	=12	=12	=12	=12	=12	=12	=12	=12	=12	=12	=12	=12	=12	=12	=12	=12
4E\	.	4.Gn\	.	4.r	.	.	8cn\	vain	.	8r	.	.	4.r	.	.	4.r	.	.	[4.cn\	.	4.r	.	4.r	.	4.r	.	4.r	.	4.r	.	4.r	.
.	.	.	.	.	.	.	8B\L	stra-	.	8r	.	.	.	.	.	.	.	.	.	.	.	.	.	.	.	.	.	.	.	.	.	.
8Gn\	.	.	.	.	.	.	8B-X\J	-ta-	.	8cn\	dans	.	.	.	.	.	.	.	.	.	.	.	.	.	.	.	.	.	.	.	.	.
=13	=13	=13	=13	=13	=13	=13	=13	=13	=13	=13	=13	=13	=13	=13	=13	=13	=13	=13	=13	=13	=13	=13	=13	=13	=13	=13	=13	=13	=13	=13	=13	=13
4.Fn\	.	(4A\	.	4.r	.	.	(<4A\	-gê-	.	4fn\	un	.	4.r	.	.	4.r	.	.	4.cnX\_	.	4.r	.	4.r	.	8r	p	8r	p	4.r	.	4.r	.
.	.	.	.	.	.	.	.	.	.	.	.	.	.	.	.	.	.	.	.	.	.	.	.	.	8Gn/L	.	8cn/L	.	.	.	.	.
.	.	8A-X\)	.	.	.	.	8A-X\)	.	.	16cn\LL	pé-	.	.	.	.	.	.	.	.	.	.	.	.	.	8G/J	.	8c/J	.	.	.	.	.
.	.	.	.	.	.	.	.	.	.	16d\JJ	.	.	.	.	.	.	.	.	.	.	.	.	.	.	.	.	.	.	.	.	.	.
=14	=14	=14	=14	=14	=14	=14	=14	=14	=14	=14	=14	=14	=14	=14	=14	=14	=14	=14	=14	=14	=14	=14	=14	=14	=14	=14	=14	=14	=14	=14	=14	=14
!	!	!	!	!	!	!	!	!	!	!	!	!	!	!	!	!	!	!	!	!	!	!	!LO:TX:t=P:problem:mixed beam	!	!	!	!	!	!	!	!	!
8Cn/L	.	8Gn\L	.	4.r	.	.	4.Gn\	-me	.	4e\	-ril	.	4.r	.	.	4.r	.	.	8cnX\L]	.	8e'/L	p	8e'/L	p	4Gn/	.	4cn\	.	4.r	.	4.r	.
8C^/J	.	8G^<\J	.	.	.	.	.	.	.	.	.	.	.	.	.	.	.	.	8e^<\J	.	8e^/J	.	8ee^\J	.	.	.	.	.	.	.	.	.
8r	.	8r	.	.	.	.	.	.	.	16e\LL	ex-	.	.	.	.	.	.	.	8r	.	8r	.	8r	.	8r	.	8r	.	.	.	.	.
.	.	.	.	.	.	.	.	.	.	16d#X\JJ	.	.	.	.	.	.	.	.	.	.	.	.	.	.	.	.	.	.	.	.	.	.
!!LO:PB:g=original
*	*	*	*	*	*	*	*	*	*	*	*	*	*	*	*	*	*	*	*	*	*	*	*	*	*clefF4	*	*	*	*	*	*	*
=15	=15	=15	=15	=15	=15	=15	=15	=15	=15	=15	=15	=15	=15	=15	=15	=15	=15	=15	=15	=15	=15	=15	=15	=15	=15	=15	=15	=15	=15	=15	=15	=15
!	!	!	!	!	!	!	!	!	!	!	!	!	!	!	!	!	!	!	!	!	!	!	!LO:TX:t=P:problem:mixed beam	!	!	!	!	!	!	!	!	!
8D'\L	.	8G#X'\L	.	4.r	.	.	4.G#X\	il	.	4e\	-trê-	.	4.r	.	.	4.r	.	.	8B'/L	.	8e'/L	.	8e'/L	.	4.D^<\	.	4.G#X/	.	[4.e/	p	[4.ee\	p
8D^\J	.	8G#^\J	.	.	.	.	.	.	.	.	.	.	.	.	.	.	.	.	8B^/J	.	8e^/J	.	8ee^\J	.	.	.	.	.	.	.	.	.
8r	.	8r	.	.	.	.	.	.	.	16e\LL	-me	.	.	.	.	.	.	.	8r	.	8r	.	8r	.	.	.	.	.	.	.	.	.
.	.	.	.	.	.	.	.	.	.	16d#X\JJ	.	.	.	.	.	.	.	.	.	.	.	.	.	.	.	.	.	.	.	.	.	.
=16	=16	=16	=16	=16	=16	=16	=16	=16	=16	=16	=16	=16	=16	=16	=16	=16	=16	=16	=16	=16	=16	=16	=16	=16	=16	=16	=16	=16	=16	=16	=16	=16
(>8C#\L	p	(8A\L	p	4.r	.	.	8A\L	cro-	.	4e\	quand	.	4.r	.	.	4.r	.	.	(8E/L	.	[4.e/	.	(4.e/	p	(8C#\L	.	8A/L	.	4.e/_	.	4.ee\]	.
8Cn\	.	8A#X\	.	.	.	.	8A#X\J	-it	.	.	.	.	.	.	.	.	.	.	8F#/	.	.	.	.	.	8Cn\	.	8F#/	.	.	.	.	.
8BB\J	.	8B\J	.	.	.	.	8B\	fuir	.	16d#X\LL	je	.	.	.	.	.	.	.	8Gn/J	.	.	.	.	.	8BB\J	.	8G#/J	.	.	.	.	.
.	.	.	.	.	.	.	.	.	.	16e\JJ	.	.	.	.	.	.	.	.	.	.	.	.	.	.	.	.	.	.	.	.	.	.
=17	=17	=17	=17	=17	=17	=17	=17	=17	=17	=17	=17	=17	=17	=17	=17	=17	=17	=17	=17	=17	=17	=17	=17	=17	=17	=17	=17	=17	=17	=17	=17	=17
8AA#X^/L	.	8c#^<\L	.	4.r	.	.	8c#\L	le	.	[8f#\L	riens	.	4.r	.	.	8r	.	.	4F#^/	.	(8e^/L]	.	8f#^/	.	8AA#X^/L	.	4F#^/	.	(8e^/L]	.	(8cc#^<\L	.
8BB/	.	8F#\	.	.	.	.	8B\J	.	.	16f#\L]	.	.	.	.	.	8r	.	.	.	.	8d/)	.	8r	.	8BB/	.	.	.	8d/)	.	8b\)	.
.	.	.	.	.	.	.	.	.	.	16e\JJ	me	.	.	.	.	.	.	.	.	.	.	.	.	.	.	.	.	.	.	.	.	.
8GG#/J	.	8E\J)	.	.	.	.	8E\	dan-	.	16d\	plon-	.	.	.	.	8e/	O	.	8B/)	.	8d|</J	.	8ee\)	.	8GG#/J)	.	8B/	.	8d|</J	.	8b|>\J	.
.	.	.	.	.	.	.	.	.	.	16B\	.	.	.	.	.	.	.	.	.	.	.	.	.	.	.	.	.	.	.	.	.	.
=18	=18	=18	=18	=18	=18	=18	=18	=18	=18	=18	=18	=18	=18	=18	=18	=18	=18	=18	=18	=18	=18	=18	=18	=18	=18	=18	=18	=18	=18	=18	=18	=18
[4.AA/)	.	(16C#\LL	.	4.r	.	.	4A\	-ger	.	4A\	-ger	.	8r	.	.	4cc#\	ciel!	.	4.ryy	.	8c#/	.	(4ccc#\	.	8AA/	.	8e\	.	8c#/	.	8a/	.
.	.	16E\	.	.	.	.	.	.	.	.	.	.	.	.	.	.	.	.	.	.	.	.	.	.	.	.	.	.	.	.	.	.
.	.	16A\	.	.	.	.	.	.	.	.	.	.	8r	.	.	.	.	.	.	.	[>4e/	.	.	.	8r	.	8r	.	8r	.	8r	.
.	.	16c#\	.	.	.	.	.	.	.	.	.	.	.	.	.	.	.	.	.	.	.	.	.	.	.	.	.	.	.	.	.	.
.	.	16e\	.	.	.	.	8r	.	.	8r	.	.	8e\	Hé-	.	8ee\	ce-	.	.	.	.	.	8bb\	.	8r	.	8r	.	8r	.	8r	.
.	.	16d\JJ)	.	.	.	.	.	.	.	.	.	.	.	.	.	.	.	.	.	.	.	.	.	.	.	.	.	.	.	.	.	.
=19	=19	=19	=19	=19	=19	=19	=19	=19	=19	=19	=19	=19	=19	=19	=19	=19	=19	=19	=19	=19	=19	=19	=19	=19	=19	=19	=19	=19	=19	=19	=19	=19
4.AA/_	.	(16c#\LL	.	4.r	.	.	4.r	.	.	4.r	.	.	4a\	-las!	.	8a\L	-lui	.	[4.A/	.	8e/L]	.	8aa\L	.	4.r	.	4.r	.	4.r	.	4.r	.
.	.	16A\	.	.	.	.	.	.	.	.	.	.	.	.	.	.	.	.	.	.	.	.	.	.	.	.	.	.	.	.	.	.
.	.	16E\	.	.	.	.	.	.	.	.	.	.	.	.	.	8b\J	.	.	.	.	8d/	.	8gg#\	.	.	.	.	.	.	.	.	.
.	.	16D\	.	.	.	.	.	.	.	.	.	.	.	.	.	.	.	.	.	.	.	.	.	.	.	.	.	.	.	.	.	.
.	.	16C#\	.	.	.	.	.	.	.	.	.	.	8a\	c'est	.	8cc#\	que	.	.	.	8e/J	.	8ggn\J	.	.	.	.	.	.	.	.	.
.	.	16E\JJ)	.	.	.	.	.	.	.	.	.	.	.	.	.	.	.	.	.	.	.	.	.	.	.	.	.	.	.	.	.	.
=20	=20	=20	=20	=20	=20	=20	=20	=20	=20	=20	=20	=20	=20	=20	=20	=20	=20	=20	=20	=20	=20	=20	=20	=20	=20	=20	=20	=20	=20	=20	=20	=20
4.AA/_	.	(16D\LL	.	4.r	.	.	4.r	.	.	4A\	l'in-	.	4a\	moi	.	(4dd\	j'ai-	.	4.A/_	.	(4.a/	.	4ff#\)	.	4.r	.	4.r	.	4.r	.	4.r	.
.	.	16A\	.	.	.	.	.	.	.	.	.	.	.	.	.	.	.	.	.	.	.	.	.	.	.	.	.	.	.	.	.	.
.	.	16d\	.	.	.	.	.	.	.	.	.	.	.	.	.	.	.	.	.	.	.	.	.	.	.	.	.	.	.	.	.	.
.	.	16e\	.	.	.	.	.	.	.	.	.	.	.	.	.	.	.	.	.	.	.	.	.	.	.	.	.	.	.	.	.	.
.	.	16fn\	.	.	.	.	.	.	.	8d\	-fi-	.	8a\	qu'il	.	16a\LL	.	.	.	.	.	.	8ffn\	.	.	.	.	.	.	.	.	.
.	.	16d\JJ)	.	.	.	.	.	.	.	.	.	.	.	.	.	16b\JJ)	.	.	.	.	.	.	.	.	.	.	.	.	.	.	.	.
=21	=21	=21	=21	=21	=21	=21	=21	=21	=21	=21	=21	=21	=21	=21	=21	=21	=21	=21	=21	=21	=21	=21	=21	=21	=21	=21	=21	=21	=21	=21	=21	=21
!	!	!LO:TX:t=P:problem:mixed beam	!	!	!	!	!	!	!	!	!	!	!	!	!	!	!	!	!	!	!	!	!	!	!	!	!	!	!	!	!	!
8AA/]	.	(16AA/LL	.	4.r	.	.	4E\	il	.	16c#\LL	-de-	.	4e\	ai-	.	8cc#\	-me	.	4.A/]	.	4.cc#\)	.	[4.ee\	.	8r	.	8r	.	8r	.	8r	.
.	.	16E\	.	.	.	.	.	.	.	16B\JJ	.	.	.	.	.	.	.	.	.	.	.	.	.	.	.	.	.	.	.	.	.	.
!	!	!	!	!	!	!	!	!	!	!	!	!	!	!	!	!	!	!	!	!	!	!	!	!	!	!	!LO:TX:b:t=pizzi	!	!LO:TX:b:t=pizzi	!	!LO:TX:b:t=pizzi	!
8r	.	16A\	.	.	.	.	.	.	.	8A\	-le	.	.	.	.	8r	.	.	.	.	.	.	.	.	8r	.	8r	.	8r	.	8r	.
.	.	16e\	.	.	.	.	.	.	.	.	.	.	.	.	.	.	.	.	.	.	.	.	.	.	.	.	.	.	.	.	.	.
8r	.	16c#\	.	.	.	.	8A\	est	.	8A\	que	.	8e\	-me	.	16cc#\LL	dans	.	.	.	.	.	.	.	8AA/	.	8e\	.	8e/	.	8cc#/	.
.	.	16A\JJ)	.	.	.	.	.	.	.	.	.	.	.	.	.	16dd\JJ	.	.	.	.	.	.	.	.	.	.	.	.	.	.	.	.
=22	=22	=22	=22	=22	=22	=22	=22	=22	=22	=22	=22	=22	=22	=22	=22	=22	=22	=22	=22	=22	=22	=22	=22	=22	=22	=22	=22	=22	=22	=22	=22	=22
8E\	.	(16G#\LL	.	4.r	.	.	(16G#\LL	pris	.	8B\	j'ai-	.	16e\LL	c'est	.	4ee\	un	.	[4.e\	.	8b\	.	(16ee\LL]	.	8E\	.	8e\	.	8d/	.	8b/	.
.	.	16F#\	.	.	.	.	16F#\JJ	.	.	.	.	.	16f#\JJ	.	.	.	.	.	.	.	.	.	16dd\J	.	.	.	.	.	.	.	.	.
8r	.	16E\	.	.	.	.	8E\)	.	.	8G#/	-me	.	4g#\	moi	.	.	.	.	.	.	8r	.	8b\)	.	8r	.	8r	.	8r	.	8r	.
.	.	16D#X\	.	.	.	.	.	.	.	.	.	.	.	.	.	.	.	.	.	.	.	.	.	.	.	.	.	.	.	.	.	.
8r	.	16Dn\	.	.	.	.	8r	.	.	16E/	a	.	.	.	.	16b\LL	pa-	.	.	.	8g#/	.	8b|>\J	.	8E\	.	8e\	.	8B/	.	8g#/	.
.	.	16E\JJ)	.	.	.	.	.	.	.	16E/	done	.	.	.	.	16cc#\JJ	.	.	.	.	.	.	.	.	.	.	.	.	.	.	.	.
=23	=23	=23	=23	=23	=23	=23	=23	=23	=23	=23	=23	=23	=23	=23	=23	=23	=23	=23	=23	=23	=23	=23	=23	=23	=23	=23	=23	=23	=23	=23	=23	=23
8AA/	.	(16C#\LL	.	4.r	.	.	8r	.	.	4.c#\	pu	.	16a\LL	c'est	.	8a\	-reil	.	8e\]	.	8a/	.	4.a/	.	8AA/	.	8e\	.	8c#/	.	8a/	.
.	.	16E\	.	.	.	.	.	.	.	.	.	.	16b\JJ	.	.	.	.	.	.	.	.	.	.	.	.	.	.	.	.	.	.	.
8r	.	16A\	.	.	.	.	16A\	il	.	.	.	.	8cc#\	moi	.	8r	.	.	4c#\	.	4e/	.	.	.	8r	.	8r	.	8r	.	8r	.
.	.	16E\	.	.	.	.	16E\	est	.	.	.	.	.	.	.	.	.	.	.	.	.	.	.	.	.	.	.	.	.	.	.	.
!	!	!	!	!	!	!	!	!	!	!	!	!	!	!	!	!LO:TX:t=P:problem:po dźwięku dodatkowe akordy w funkcji harmonicznego "kustosza" dwóch kolejnych taktów	!	!	!	!	!	!	!	!	!	!	!	!	!	!	!	!
8r	.	16C#\	.	.	.	.	16C#/	pris	.	.	.	.	8a\	qu'il	.	8a\	dan-	.	.	.	.	.	.	.	8AA/	.	8c#\	.	8e/	.	8a/	.
.	.	16AA\JJ)	.	.	.	.	16AA/	en	.	.	.	.	.	.	.	.	.	.	.	.	.	.	.	.	.	.	.	.	.	.	.	.
!!LO:PB:g=original
=24	=24	=24	=24	=24	=24	=24	=24	=24	=24	=24	=24	=24	=24	=24	=24	=24	=24	=24	=24	=24	=24	=24	=24	=24	=24	=24	=24	=24	=24	=24	=24	=24
!LO:TX:t=P:problem:w taktach 24-37 dopisana partia bc (?), ostatecznie skreślona	!	!	!	!	!	!	!	!	!	!	!	!	!	!	!	!	!	!	!	!	!	!	!	!	!	!	!	!	!	!	!	!
4D\	.	(16D\LL	.	4.r	.	.	8D\	fin,	.	4d\	s'en-	.	4.f#\	ai-	.	[4.a\	-ger	.	[4.d^<\	.	[4.f#^/	.	[4.a^/	.	8DD/	.	8d\	.	8f#/	.	8a/	.
.	.	16F#\	.	.	.	.	.	.	.	.	.	.	.	.	.	.	.	.	.	.	.	.	.	.	.	.	.	.	.	.	.	.
!	!	!	!	!	!	!	!	!	!	!	!	!	!	!	!	!	!	!	!	!	!	!	!	!	!LO:TX:b:t=arco	!	!	!	!	!	!	!
.	.	16A\	.	.	.	.	8D\	il	.	.	.	.	.	.	.	.	.	.	.	.	.	.	.	.	8r	.	8r	.	8r	.	8r	.
.	.	16d\	.	.	.	.	.	.	.	.	.	.	.	.	.	.	.	.	.	.	.	.	.	.	.	.	.	.	.	.	.	.
8r	.	16c#\	.	.	.	.	8D\	est	.	8d\	-ger	.	.	.	.	.	.	.	.	.	.	.	.	.	8DD/	.	8r	.	8r	.	8r	.
.	.	16B\JJ)	.	.	.	.	.	.	.	.	.	.	.	.	.	.	.	.	.	.	.	.	.	.	.	.	.	.	.	.	.	.
=25	=25	=25	=25	=25	=25	=25	=25	=25	=25	=25	=25	=25	=25	=25	=25	=25	=25	=25	=25	=25	=25	=25	=25	=25	=25	=25	=25	=25	=25	=25	=25	=25
4F#\	.	(16A\LL	.	4.r	.	.	4F#\	pris	.	4c#\	.	.	4f#\	-me	.	4a\]	.	.	4d\]	.	4f#/]	.	4a/]	.	4.FF#/	.	4.r	.	4.r	.	4.r	.
.	.	16G#\	.	.	.	.	.	.	.	.	.	.	.	.	.	.	.	.	.	.	.	.	.	.	.	.	.	.	.	.	.	.
.	.	16F#\	.	.	.	.	.	.	.	.	.	.	.	.	.	.	.	.	.	.	.	.	.	.	.	.	.	.	.	.	.	.
.	.	16G#\	.	.	.	.	.	.	.	.	.	.	.	.	.	.	.	.	.	.	.	.	.	.	.	.	.	.	.	.	.	.
!	!	!	!	!	!	!	!	!	!	!	!	!	!	!	!	!	!	!	!	!	!	!	!	!	!	!	!LO:TX:b:t=arco	!	!LO:TX:b:t=arco	!	!LO:TX:b:t=arco	!
8r	.	16A\	.	.	.	.	8r	.	.	16.A\	l'in-	.	8r	.	.	8r	.	.	8r	.	8r	.	8r	.	.	.	.	.	.	.	.	.
.	.	16B\JJ)	.	.	.	.	.	.	.	.	.	.	.	.	.	.	.	.	.	.	.	.	.	.	.	.	.	.	.	.	.	.
.	.	.	.	.	.	.	.	.	.	32B\	-fi-	.	.	.	.	.	.	.	.	.	.	.	.	.	.	.	.	.	.	.	.	.
=26	=26	=26	=26	=26	=26	=26	=26	=26	=26	=26	=26	=26	=26	=26	=26	=26	=26	=26	=26	=26	=26	=26	=26	=26	=26	=26	=26	=26	=26	=26	=26	=26
4C#X/	.	(16c#\LL	.	4.r	.	.	4E#X\	il	.	4c#\	-de-	.	4.r	.	.	4.r	.	.	4.c#/	.	8r	.	8r	.	4.C#/	.	8E#X/	.	8B/	.	8c#/	.
.	.	16G#\	.	.	.	.	.	.	.	.	.	.	.	.	.	.	.	.	.	.	.	.	.	.	.	.	.	.	.	.	.	.
.	.	16E#X\	.	.	.	.	.	.	.	.	.	.	.	.	.	.	.	.	.	.	8cc#\	.	8ccc#\	.	.	.	8r	.	8r	.	8r	.
.	.	16F#\	.	.	.	.	.	.	.	.	.	.	.	.	.	.	.	.	.	.	.	.	.	.	.	.	.	.	.	.	.	.
8r	.	16G#\	.	.	.	.	8E#\	est	.	16G#/	-le	.	.	.	.	.	.	.	.	.	8r	.	8r	.	.	.	8E#/	.	8B/	.	8c#/	.
.	.	16A\JJ)	.	.	.	.	.	.	.	16A\	que	.	.	.	.	.	.	.	.	.	.	.	.	.	.	.	.	.	.	.	.	.
=27	=27	=27	=27	=27	=27	=27	=27	=27	=27	=27	=27	=27	=27	=27	=27	=27	=27	=27	=27	=27	=27	=27	=27	=27	=27	=27	=27	=27	=27	=27	=27	=27
4F#\	.	(16F#\LL	.	4.r	.	.	4F#\	pris	.	8F#/	j'ai-	.	8r	.	.	4.r	.	.	4c#/	.	8r	.	8r	.	4.FF#/	.	8F#/	.	8A/	.	8c#/	.
.	.	16E#X\	.	.	.	.	.	.	.	.	.	.	.	.	.	.	.	.	.	.	.	.	.	.	.	.	.	.	.	.	.	.
.	.	16F#\	.	.	.	.	.	.	.	8F#/	-me	.	8r	.	.	.	.	.	.	.	8ff#\	.	8fff#\	.	.	.	8r	.	8r	.	8r	.
.	.	16G#\	.	.	.	.	.	.	.	.	.	.	.	.	.	.	.	.	.	.	.	.	.	.	.	.	.	.	.	.	.	.
8r	.	16A\	.	.	.	.	8D/	en	.	8r	.	.	16f#\	oui	.	.	.	.	8d\	.	8r	.	8r	.	.	.	8A/	.	8A/	.	8c#/	.
.	.	16B\JJ)	.	.	.	.	.	.	.	.	.	.	16g#\	c'est	.	.	.	.	.	.	.	.	.	.	.	.	.	.	.	.	.	.
=28	=28	=28	=28	=28	=28	=28	=28	=28	=28	=28	=28	=28	=28	=28	=28	=28	=28	=28	=28	=28	=28	=28	=28	=28	=28	=28	=28	=28	=28	=28	=28	=28
8E\	.	(16c#\LL	.	4.r	.	.	8C#/	fin	.	4.r	.	.	4a\	moi	.	4.r	.	.	16c#\LL	.	16e/LL	.	8r	.	4.EE/	.	8E/	.	8c#/	.	8e/	.
.	.	16B\	.	.	.	.	.	.	.	.	.	.	.	.	.	.	.	.	16d\JJ	.	16d/JJ	.	.	.	.	.	.	.	.	.	.	.
8r	.	16A\	.	.	.	.	8E\	il	.	.	.	.	.	.	.	.	.	.	[4e\	.	8c#/L	.	[4e/	.	.	.	8r	.	8r	.	8r	.
.	.	16c#\	.	.	.	.	.	.	.	.	.	.	.	.	.	.	.	.	.	.	.	.	.	.	.	.	.	.	.	.	.	.
8E\	.	16e\	.	.	.	.	8E\	est	.	.	.	.	16cc#\LL	qu'	.	.	.	.	.	.	8e/J	.	.	.	.	.	8G#/	.	8e/	.	8e/	.
.	.	16d\JJ)	.	.	.	.	.	.	.	.	.	.	16b\JJ	il	.	.	.	.	.	.	.	.	.	.	.	.	.	.	.	.	.	.
=29	=29	=29	=29	=29	=29	=29	=29	=29	=29	=29	=29	=29	=29	=29	=29	=29	=29	=29	=29	=29	=29	=29	=29	=29	=29	=29	=29	=29	=29	=29	=29	=29
8A\	.	(16c#\LL	.	4.r	.	.	8AA/	pris	.	4.r	.	.	8a\	ai-	.	8r	.	.	8e\]	.	4.e/	.	4.e/]	.	4AA/	.	8A/	.	8c#/	.	8c#/	.
.	.	16A\	.	.	.	.	.	.	.	.	.	.	.	.	.	.	.	.	.	.	.	.	.	.	.	.	.	.	.	.	.	.
8r	.	16E\	.	.	.	.	8r	.	.	.	.	.	8e\	-me	.	8r	.	.	4c#\	.	.	.	.	.	.	.	8r	.	8r	.	8r	.
.	.	16D\	.	.	.	.	.	.	.	.	.	.	.	.	.	.	.	.	.	.	.	.	.	.	.	.	.	.	.	.	.	.
8G#\	.	16C#\	.	.	.	.	8r	.	.	.	.	.	8r	.	.	16cc#\	Ah!	.	.	.	.	.	.	.	8AA/	.	8r	.	8r	.	8r	.
.	.	16BB\JJ)	.	.	.	.	.	.	.	.	.	.	.	.	.	16cc#\	ce-	.	.	.	.	.	.	.	.	.	.	.	.	.	.	.
=30	=30	=30	=30	=30	=30	=30	=30	=30	=30	=30	=30	=30	=30	=30	=30	=30	=30	=30	=30	=30	=30	=30	=30	=30	=30	=30	=30	=30	=30	=30	=30	=30
!	!	!	!	!	!	!	!	!	!	!	!	!	!	!	!	!	!	!	!	!	!	!	!	!	!LO:TX:t=P:problem:mixed beam	!	!	!	!	!	!	!
8F#\L	.	(16AA\LL	.	4.r	.	.	4.r	.	.	4.r	.	.	4.r	.	.	8.ff#\L	-lui	.	4.F#/	.	4.A/	.	(>8c#/L	.	8FF#/L	.	4.ryy	.	4.ryy	.	4.ryy	.
.	.	16C#\	.	.	.	.	.	.	.	.	.	.	.	.	.	.	.	.	.	.	.	.	.	.	.	.	.	.	.	.	.	.
8F#\	.	16F#\	.	.	.	.	.	.	.	.	.	.	.	.	.	.	.	.	.	.	.	.	8d/	.	8F#\	.	.	.	.	.	.	.
.	.	16A\	.	.	.	.	.	.	.	.	.	.	.	.	.	16ee\Jk	.	.	.	.	.	.	.	.	.	.	.	.	.	.	.	.
8F#\J	.	16c#\	.	.	.	.	.	.	.	.	.	.	.	.	.	16a\LL	que	.	.	.	.	.	8c#/J)	.	8F#\J	.	.	.	.	.	.	.
.	.	16f#\JJ)	.	.	.	.	.	.	.	.	.	.	.	.	.	16b\JJ	.	.	.	.	.	.	.	.	.	.	.	.	.	.	.	.
=31	=31	=31	=31	=31	=31	=31	=31	=31	=31	=31	=31	=31	=31	=31	=31	=31	=31	=31	=31	=31	=31	=31	=31	=31	=31	=31	=31	=31	=31	=31	=31	=31
4C#/	.	(16e#X\LL	.	4.r	.	.	4.r	.	.	8r	.	.	4.r	.	.	16cc#\LL	j'ai-	.	4.G#/	.	(8c#/L	.	(<8e#X/L	.	8C#/L	.	4.ryy	.	4.ryy	.	4.ryy	.
.	.	16c#\	.	.	.	.	.	.	.	.	.	.	.	.	.	16dd\JJ	.	.	.	.	.	.	.	.	.	.	.	.	.	.	.	.
.	.	16G#\	.	.	.	.	.	.	.	8r	.	.	.	.	.	4cc#\	-me	.	.	.	8e#X/	.	8g#/	.	8CC#/	.	.	.	.	.	.	.
.	.	16E#X\	.	.	.	.	.	.	.	.	.	.	.	.	.	.	.	.	.	.	.	.	.	.	.	.	.	.	.	.	.	.
8r	.	16C#\	.	.	.	.	.	.	.	16c#\	l' in-	.	.	.	.	.	.	.	.	.	8c#/J)	.	8e#/J)	.	8CC#/J	.	.	.	.	.	.	.
.	.	16BB\JJ)	.	.	.	.	.	.	.	16c#\	-fi-	.	.	.	.	.	.	.	.	.	.	.	.	.	.	.	.	.	.	.	.	.
=32	=32	=32	=32	=32	=32	=32	=32	=32	=32	=32	=32	=32	=32	=32	=32	=32	=32	=32	=32	=32	=32	=32	=32	=32	=32	=32	=32	=32	=32	=32	=32	=32
8F#\L	.	(16AA\LL	.	4.r	.	.	4.r	.	.	8.f#\L	-de-	.	4.r	.	.	4.r	.	.	4F#/	.	8c#/L	.	8c#/L	.	8FF#/L	.	4.ryy	.	4.ryy	.	4.ryy	.
.	.	16C#\	.	.	.	.	.	.	.	.	.	.	.	.	.	.	.	.	.	.	.	.	.	.	.	.	.	.	.	.	.	.
8F#\	.	16D\	.	.	.	.	.	.	.	.	.	.	.	.	.	.	.	.	.	.	8A/	.	8A/	.	8FF#/J	.	.	.	.	.	.	.
.	.	16E\	.	.	.	.	.	.	.	16e\Jk	.	.	.	.	.	.	.	.	.	.	.	.	.	.	.	.	.	.	.	.	.	.
16r	.	16F#\	.	.	.	.	.	.	.	16A\	-le	.	.	.	.	.	.	.	8r	.	16A/L	.	16a/L	.	16FF#/LL	.	.	.	.	.	.	.
16E\Jk	.	16G#\JJ)	.	.	.	.	.	.	.	16B\	qui	.	.	.	.	.	.	.	.	.	16B/JJ	.	16e/JJ	.	16EE/JJ	.	.	.	.	.	.	.
!!LO:PB:g=original
=33	=33	=33	=33	=33	=33	=33	=33	=33	=33	=33	=33	=33	=33	=33	=33	=33	=33	=33	=33	=33	=33	=33	=33	=33	=33	=33	=33	=33	=33	=33	=33	=33
!	!	!	!	!	!	!	!	!	!	!	!	!	!	!	!	!	!	!	!LO:TX:t=P:problem:mixed beam	!	!	!	!LO:TX:t=P:problem:mixed beam	!	!	!	!	!	!	!	!	!
[4.AA/	.	(16A\LL	.	4.r	.	.	4.r	.	.	16c#\LL	j'ai-	.	4.r	.	.	4.r	.	.	8E/L	.	4c#/	.	8e/L	.	[4.AA/	.	4.ryy	.	8r	.	8r	.
.	.	16B\	.	.	.	.	.	.	.	16d\JJ	.	.	.	.	.	.	.	.	.	.	.	.	.	.	.	.	.	.	.	.	.	.
.	.	16c#\	.	.	.	.	.	.	.	8c#\	-me	.	.	.	.	.	.	.	8e\J	.	.	.	8ee\J	.	.	.	.	.	8r	.	8r	.
.	.	16A\	.	.	.	.	.	.	.	.	.	.	.	.	.	.	.	.	.	.	.	.	.	.	.	.	.	.	.	.	.	.
!	!	!	!	!	!	!	!	!	!	!	!	!	!	!	!	!	!	!	!	!	!	!	!	!	!	!	!	!	!LO:TX:t=P:problem:mixed beam	!	!LO:TX:t=P:problem:mixed beam	!
!	!	!	!	!	!	!	!	!	!	!	!	!	!	!	!	!	!	!	!	!	!	!	!	!	!	!	!	!	!LO:TX:t=P:problem:belkowanie przez kreskę	!	!LO:TX:t=P:problem:belkowanie przez kreskę	!
.	.	16E\	.	.	.	.	.	.	.	16c#\	a	.	.	.	.	.	.	.	8r	.	8r	.	8r	.	.	.	.	.	8e/L	.	8e/L	.
.	.	16F#\JJ)	.	.	.	.	.	.	.	16d\	donc	.	.	.	.	.	.	.	.	.	.	.	.	.	.	.	.	.	.	.	.	.
=34	=34	=34	=34	=34	=34	=34	=34	=34	=34	=34	=34	=34	=34	=34	=34	=34	=34	=34	=34	=34	=34	=34	=34	=34	=34	=34	=34	=34	=34	=34	=34	=34
!	!	!	!	!	!	!	!	!	!	!	!	!	!	!	!	!	!	!	!LO:TX:t=P:problem:mixed beam	!	!	!	!	!	!	!	!	!	!	!	!	!
4.AA/_	.	(16G#\LL	.	4.r	.	.	4.r	.	.	4e\	pu	.	4.r	.	.	4.r	.	.	8E/L	.	4B/	.	8e\L	.	4.AA/_	.	8r	.	8ee/J	.	8ee/J	.
.	.	16F#\	.	.	.	.	.	.	.	.	.	.	.	.	.	.	.	.	.	.	.	.	.	.	.	.	.	.	.	.	.	.
.	.	16E\	.	.	.	.	.	.	.	.	.	.	.	.	.	.	.	.	8e\J	.	.	.	8ee\J	.	.	.	8r	.	8r	.	8r	.
.	.	16D#X\	.	.	.	.	.	.	.	.	.	.	.	.	.	.	.	.	.	.	.	.	.	.	.	.	.	.	.	.	.	.
!	!	!	!	!	!	!	!	!	!	!	!	!	!	!	!	!	!	!	!	!	!	!	!	!	!	!	!LO:TX:t=P:problem:mixed beam	!	!	!	!	!
!	!	!	!	!	!	!	!	!	!	!	!	!	!	!	!	!	!	!	!	!	!	!	!	!	!	!	!LO:TX:t=P:problem:belkowanie przez kreskę	!	!LO:TX:t=P:problem:belkowanie przez kreskę	!	!LO:TX:t=P:problem:belkowanie przez kreskę	!
.	.	16Dn\	.	.	.	.	.	.	.	16B\	s'en-	.	.	.	.	.	.	.	8r	.	8r	.	8r	.	.	.	8A\L	.	8a\L	.	8a\L	.
.	.	16E\JJ)	.	.	.	.	.	.	.	16c#\	-ga-	.	.	.	.	.	.	.	.	.	.	.	.	.	.	.	.	.	.	.	.	.
=35	=35	=35	=35	=35	=35	=35	=35	=35	=35	=35	=35	=35	=35	=35	=35	=35	=35	=35	=35	=35	=35	=35	=35	=35	=35	=35	=35	=35	=35	=35	=35	=35
8AA/]	.	(16C#\LL	.	4.r	.	.	4.r	.	.	4d\	-ger	.	8r	.	.	4.r	.	.	8r	.	8r	.	8r	.	4AA/]	.	8a\J	.	8aa\J	.	8aa\J	.
.	.	16E\	.	.	.	.	.	.	.	.	.	.	.	.	.	.	.	.	.	.	.	.	.	.	.	.	.	.	.	.	.	.
8r	.	16A\	.	.	.	.	.	.	.	.	.	.	8r	.	.	.	.	.	8r	.	8r	.	8r	.	.	.	8r	.	8r	.	8r	.
.	.	16c#\	.	.	.	.	.	.	.	.	.	.	.	.	.	.	.	.	.	.	.	.	.	.	.	.	.	.	.	.	.	.
8D\	.	16d\	.	.	.	.	.	.	.	8r	.	.	16f#\	j'ai	.	.	.	.	8A'/	.	8f#'/	.	8a'/	.	8D\	.	8r	.	8r	.	8r	.
.	.	16B\JJ)	.	.	.	.	.	.	.	.	.	.	16g#\	cau-	.	.	.	.	.	.	.	.	.	.	.	.	.	.	.	.	.	.
=36	=36	=36	=36	=36	=36	=36	=36	=36	=36	=36	=36	=36	=36	=36	=36	=36	=36	=36	=36	=36	=36	=36	=36	=36	=36	=36	=36	=36	=36	=36	=36	=36
!LO:TX:t=P:problem:mixed beam	!	!LO:TX:t=P:problem:mixed beam	!	!	!	!	!	!	!	!	!	!	!	!	!	!	!	!	!	!	!	!	!	!	!LO:TX:t=P:problem:mixed beam	!	!	!	!	!	!	!
8E\L	.	16c#\LL	.	4.r	.	.	4.r	.	.	4.r	.	.	8a\	-sé	.	4.r	.	.	(4e\	<	4.e/	<	[4cc#\	<	8E\L	.	4.r	.	4.r	.	4.r	.
.	.	16A\J	.	.	.	.	.	.	.	.	.	.	.	.	.	.	.	.	.	.	.	.	.	.	.	.	.	.	.	.	.	.
8E^\	.	8E\	.	.	.	.	.	.	.	.	.	.	8.cc#\	son	.	.	.	.	.	[ >	.	[ >	.	[ >	8E^\	.	.	.	.	.	.	.
8EE/J	.	8EE/J	.	.	.	.	.	.	.	.	.	.	.	.	.	.	.	.	16e\LL)	]	.	]	16cc#\LL]	]	8EE/J	.	.	.	.	.	.	.
.	.	.	.	.	.	.	.	.	.	.	.	.	16b\	dan-	.	.	.	.	16d\JJ	.	.	.	16b\JJ	.	.	.	.	.	.	.	.	.
=37	=37	=37	=37	=37	=37	=37	=37	=37	=37	=37	=37	=37	=37	=37	=37	=37	=37	=37	=37	=37	=37	=37	=37	=37	=37	=37	=37	=37	=37	=37	=37	=37
8AA/	.	8AA/	.	4.r	.	.	4.r	.	.	4.r	.	.	8a\	-ger.	.	4.r	.	.	16c#'\LL	.	16e'/LL	]	16a'/LL	.	4AA/	.	4.r	.	4.r	.	4.r	.
.	.	.	.	.	.	.	.	.	.	.	.	.	.	.	.	.	.	.	16c#'\	.	16e'/	.	16a'/	.	.	.	.	.	.	.	.	.
8r	.	8r	.	.	.	.	.	.	.	.	.	.	8r	.	.	.	.	.	16c#'\	.	16e'/	.	16a'/	.	.	.	.	.	.	.	.	.
.	.	.	.	.	.	.	.	.	.	.	.	.	.	.	.	.	.	.	16c#'\	.	16e'/	.	16a'/	.	.	.	.	.	.	.	.	.
16r	.	16r	.	.	.	.	.	.	.	.	.	.	8r	.	.	.	.	.	16c#'\	.	16e'/	.	16a'/	.	8r	.	.	.	.	.	.	.
16E\	.	16E\	.	.	.	.	.	.	.	.	.	.	.	.	.	.	.	.	16c#'\JJ	.	16e'/JJ	.	16a'/JJ	.	.	.	.	.	.	.	.	.
=38	=38	=38	=38	=38	=38	=38	=38	=38	=38	=38	=38	=38	=38	=38	=38	=38	=38	=38	=38	=38	=38	=38	=38	=38	=38	=38	=38	=38	=38	=38	=38	=38
*	*	*	*	*	*	*	*	*	*	*	*	*	*	*	*	*	*	*	*rep	*	*rep	*	*rep	*	*	*	*	*	*	*	*	*
8A\L	.	8A\L	.	4.r	.	.	4.r	.	.	4.r	.	.	4.r	.	.	4.r	.	.	16c#'\LL	.	16e'/LL	.	16a'/LL	.	4.r	.	4.r	.	4.r	.	4.r	.
.	.	.	.	.	.	.	.	.	.	.	.	.	.	.	.	.	.	.	16c#'\	.	16e'/	.	16a'/	.	.	.	.	.	.	.	.	.
8E\	.	8E\	.	.	.	.	.	.	.	.	.	.	.	.	.	.	.	.	16c#'\	.	16e'/	.	16a'/	.	.	.	.	.	.	.	.	.
.	.	.	.	.	.	.	.	.	.	.	.	.	.	.	.	.	.	.	16c#'\	.	16e'/	.	16a'/	.	.	.	.	.	.	.	.	.
8C#\J	.	8C#\J	.	.	.	.	.	.	.	.	.	.	.	.	.	.	.	.	16c#'\	.	16e'/	.	16a'/	.	.	.	.	.	.	.	.	.
.	.	.	.	.	.	.	.	.	.	.	.	.	.	.	.	.	.	.	16c#'\JJ	.	16e'/JJ	.	16a'/JJ	.	.	.	.	.	.	.	.	.
*	*	*	*	*	*	*	*	*	*	*	*	*	*	*	*	*	*	*	*Xrep	*	*Xrep	*	*Xrep	*	*	*	*	*	*	*	*	*
=39	=39	=39	=39	=39	=39	=39	=39	=39	=39	=39	=39	=39	=39	=39	=39	=39	=39	=39	=39	=39	=39	=39	=39	=39	=39	=39	=39	=39	=39	=39	=39	=39
*	*	*	*	*	*	*	*	*	*	*	*	*	*	*	*	*	*	*	*rep	*	*rep	*	*rep	*	*	*	*	*	*	*	*	*
4AA/	.	4AA/	.	4.r	.	.	16E\	C'est	.	4.r	.	.	4.r	.	.	4.r	.	.	16c#'\LL	.	16e'/LL	.	16a'/LL	.	4.r	.	4.r	.	4.r	.	4.r	.
.	.	.	.	.	.	.	16E\	ma	.	.	.	.	.	.	.	.	.	.	16c#'\	.	16e'/	.	16a'/	.	.	.	.	.	.	.	.	.
.	.	.	.	.	.	.	16A\	fe(m)-	.	.	.	.	.	.	.	.	.	.	16c#'\	.	16e'/	.	16a'/	.	.	.	.	.	.	.	.	.
.	.	.	.	.	.	.	16A\	-me	.	.	.	.	.	.	.	.	.	.	16c#'\	.	16e'/	.	16a'/	.	.	.	.	.	.	.	.	.
8r	.	8r	.	.	.	.	8B^\	qu'il	.	.	.	.	.	.	.	.	.	.	16c#'\	.	16e'/	.	16a'/	.	.	.	.	.	.	.	.	.
.	.	.	.	.	.	.	.	.	.	.	.	.	.	.	.	.	.	.	16c#'\JJ	.	16e'/JJ	.	16a'/JJ	.	.	.	.	.	.	.	.	.
*	*	*	*	*	*	*	*	*	*	*	*	*	*	*	*	*	*	*	*Xrep	*	*Xrep	*	*Xrep	*	*	*	*	*	*	*	*	*
=40	=40	=40	=40	=40	=40	=40	=40	=40	=40	=40	=40	=40	=40	=40	=40	=40	=40	=40	=40	=40	=40	=40	=40	=40	=40	=40	=40	=40	=40	=40	=40	=40
*	*	*	*	*	*	*	*	*	*	*	*	*	*	*	*	*	*	*	*rep	*	*rep	*	*rep	*	*	*	*	*	*	*	*	*
4AA/	.	4AA/	.	4.r	.	.	16A\	ai-	.	4.r	.	.	4.r	.	.	4.r	.	.	16c#'\LL	.	16e'/LL	.	16a'/LL	.	4.r	.	4.r	.	4.r	.	4.r	.
.	.	.	.	.	.	.	16A\	-me	.	.	.	.	.	.	.	.	.	.	16c#'\	.	16e'/	.	16a'/	.	.	.	.	.	.	.	.	.
.	.	.	.	.	.	.	16E\	je	.	.	.	.	.	.	.	.	.	.	16c#'\	.	16e'/	.	16a'/	.	.	.	.	.	.	.	.	.
.	.	.	.	.	.	.	16E\	sau-	.	.	.	.	.	.	.	.	.	.	16c#'\	.	16e'/	.	16a'/	.	.	.	.	.	.	.	.	.
8r	.	8r	.	.	.	.	8c#\	-rais	.	.	.	.	.	.	.	.	.	.	16c#'\	.	16e'/	.	16a'/	.	.	.	.	.	.	.	.	.
.	.	.	.	.	.	.	.	.	.	.	.	.	.	.	.	.	.	.	16c#'\JJ	.	16e'/JJ	.	16a'/JJ	.	.	.	.	.	.	.	.	.
*	*	*	*	*	*	*	*	*	*	*	*	*	*	*	*	*	*	*	*Xrep	*	*Xrep	*	*Xrep	*	*	*	*	*	*	*	*	*
=41	=41	=41	=41	=41	=41	=41	=41	=41	=41	=41	=41	=41	=41	=41	=41	=41	=41	=41	=41	=41	=41	=41	=41	=41	=41	=41	=41	=41	=41	=41	=41	=41
*	*	*	*	*	*	*	*	*	*	*	*	*	*	*	*	*	*	*	*tremolo	*	*tremolo	*	*tremolo	*	*	*	*	*	*	*	*	*
4C#/	sf	4C#/	sf	16GG#/	À	.	4C#/	me	.	4.r	.	.	4.r	.	.	4.r	.	.	16c#\LL	fp	16e#X/LL	fp	16g#/LL	fp	8C#/	f	8g# 8c#\	f	8e#X 8G#/	f	8cc# 8e#X\	f
.	.	.	.	16GG#/	pre-	.	.	.	.	.	.	.	.	.	.	.	.	.	16c#\	.	16e#/	.	16g#/	.	.	.	.	.	.	.	.	.
.	.	.	.	16C#/	-sent	.	.	.	.	.	.	.	.	.	.	.	.	.	16c#\	.	16e#/	.	16g#/	.	8r	.	8r	.	8r	.	8r	.
.	.	.	.	16C#/	c'est	.	.	.	.	.	.	.	.	.	.	.	.	.	16c#\	.	16e#/	.	16g#/	.	.	.	.	.	.	.	.	.
8r	.	8r	.	8D^\	moi	.	8G#\	ven-	.	.	.	.	.	.	.	.	.	.	16c#\	.	16e#/	.	16g#/	.	8r	.	8r	.	8r	.	8r	.
.	.	.	.	.	.	.	.	.	.	.	.	.	.	.	.	.	.	.	16c#\JJ	.	16e#/JJ	.	16g#/JJ	.	.	.	.	.	.	.	.	.
!!LO:PB:g=original
=42	=42	=42	=42	=42	=42	=42	=42	=42	=42	=42	=42	=42	=42	=42	=42	=42	=42	=42	=42	=42	=42	=42	=42	=42	=42	=42	=42	=42	=42	=42	=42	=42
4c#\	p	4c#\	p	16C#/	mê-	.	4.C#/	-ger	.	4.r	.	.	4.r	.	.	4.r	.	.	16c#\LL	.	16e#X/LL	.	16g#/LL	.	4.r	.	4.r	.	4.r	.	4.r	.
.	.	.	.	16C#/	-me	.	.	.	.	.	.	.	.	.	.	.	.	.	16c#\	.	16e#/	.	16g#/	.	.	.	.	.	.	.	.	.
.	.	.	.	16GG#/	qui	.	.	.	.	.	.	.	.	.	.	.	.	.	16c#\	.	16e#/	.	16g#/	.	.	.	.	.	.	.	.	.
.	.	.	.	16GG#/	dois	.	.	.	.	.	.	.	.	.	.	.	.	.	16c#\	.	16e#/	.	16g#/	.	.	.	.	.	.	.	.	.
8r	.	8r	.	8E#X^\	le	.	.	.	.	.	.	.	.	.	.	.	.	.	16c#\	.	16e#/	.	16g#/	.	.	.	.	.	.	.	.	.
.	.	.	.	.	.	.	.	.	.	.	.	.	.	.	.	.	.	.	16c#\JJ	.	16e#/JJ	.	16g#/JJ	.	.	.	.	.	.	.	.	.
=43	=43	=43	=43	=43	=43	=43	=43	=43	=43	=43	=43	=43	=43	=43	=43	=43	=43	=43	=43	=43	=43	=43	=43	=43	=43	=43	=43	=43	=43	=43	=43	=43
4FF#/	f	4FF#/	f	4F#\	pro-	.	16C#/	C'est	.	4.r	.	.	4.r	.	.	4.r	.	.	16c#\LL	fp	16f#/LL	fp	16a/LL	fp	8FF#/	f	8f# 8A\	f	8a 8c#/	f	8aa 8cc#\	f
.	.	.	.	.	.	.	16C#/	ma	.	.	.	.	.	.	.	.	.	.	16c#\	.	16f#/	.	16a/	.	.	.	.	.	.	.	.	.
.	.	.	.	.	.	.	16F#\	fe(m)-	.	.	.	.	.	.	.	.	.	.	16c#\	.	16f#/	.	16a/	.	8r	.	8r	.	8r	.	8r	.
.	.	.	.	.	.	.	16F#\	-me	.	.	.	.	.	.	.	.	.	.	16c#\	.	16f#/	.	16a/	.	.	.	.	.	.	.	.	.
8r	.	8r	.	8C#/	-té-	.	8G#^>/	qu'il	.	.	.	.	.	.	.	.	.	.	16c#\	.	16f#/	.	16a/	.	8r	.	8r	.	8r	.	8r	.
.	.	.	.	.	.	.	.	.	.	.	.	.	.	.	.	.	.	.	16c#\JJ	.	16f#/JJ	.	16a/JJ	.	.	.	.	.	.	.	.	.
*	*	*	*	*	*	*	*	*	*	*	*	*	*	*	*	*	*	*	*Xtremolo	*	*Xtremolo	*	*Xtremolo	*	*	*	*	*	*	*	*	*
=44	=44	=44	=44	=44	=44	=44	=44	=44	=44	=44	=44	=44	=44	=44	=44	=44	=44	=44	=44	=44	=44	=44	=44	=44	=44	=44	=44	=44	=44	=44	=44	=44
*	*	*	*	*	*	*	*	*	*	*	*	*	*	*	*	*	*	*	*rep	*	*rep	*	*rep	*	*	*	*	*	*	*	*	*
4F#\	p	4F#\	p	4.F#\	-ger	.	16F#\	ai-	.	4.r	.	.	4.r	.	.	4.r	.	.	16c#\LL	.	16f#/LL	.	16a/LL	.	4.r	.	4.r	.	4.r	.	4.r	.
.	.	.	.	.	.	.	16F#\	-me	.	.	.	.	.	.	.	.	.	.	16c#\	.	16f#/	.	16a/	.	.	.	.	.	.	.	.	.
.	.	.	.	.	.	.	16C#/	je	.	.	.	.	.	.	.	.	.	.	16c#\	.	16f#/	.	16a/	.	.	.	.	.	.	.	.	.
.	.	.	.	.	.	.	16C#/	sau-	.	.	.	.	.	.	.	.	.	.	16c#\	.	16f#/	.	16a/	.	.	.	.	.	.	.	.	.
8r	.	8r	.	.	.	.	8A^\	-rais	.	.	.	.	.	.	.	.	.	.	16c#\	.	16f#/	.	16a/	.	.	.	.	.	.	.	.	.
.	.	.	.	.	.	.	.	.	.	.	.	.	.	.	.	.	.	.	16c#\JJ	.	16f#/JJ	.	16a/JJ	.	.	.	.	.	.	.	.	.
*	*	*	*	*	*	*	*	*	*	*	*	*	*	*	*	*	*	*	*Xrep	*	*Xrep	*	*Xrep	*	*	*	*	*	*	*	*	*
=45	=45	=45	=45	=45	=45	=45	=45	=45	=45	=45	=45	=45	=45	=45	=45	=45	=45	=45	=45	=45	=45	=45	=45	=45	=45	=45	=45	=45	=45	=45	=45	=45
*	*	*	*	*	*	*	*	*	*	*	*	*	*	*	*	*	*	*	*tremolo	*	*rep	*	*tremolo	*	*	*	*	*	*	*	*	*
4BB/	f	4BB/	f	16F#\	à	.	4D\	me	.	8B\	Ciel!	.	8f#\	Ciel!	.	8dd\	Ciel!	.	16d\LL	fp	16f#/LL	fp	16b/LL	fp	8BB/	f	8f# 8B\	f	8b 8d/	f	8dd\ 8f#\	f
.	.	.	.	16F#\	pre-	.	.	.	.	.	.	.	.	.	.	.	.	.	16d\	.	16f#/	.	16b/	.	.	.	.	.	.	.	.	.
.	.	.	.	16B\	-sent	.	.	.	.	8r	.	.	8r	.	.	8r	.	.	16d\	.	16f#/	.	16b/	.	8r	.	8r	.	8r	.	8r	.
.	.	.	.	16B\	c'est	.	.	.	.	.	.	.	.	.	.	.	.	.	16d\	.	16f#/	.	16b/	.	.	.	.	.	.	.	.	.
8r	.	8r	.	8c#^<\	moi	.	8D\	van-	.	8f#\	com-	.	8f#\	com-	.	8dd\	com-	.	16d\	.	16f#/	.	16b/	.	8r	.	8r	.	8r	.	8r	.
.	.	.	.	.	.	.	.	.	.	.	.	.	.	.	.	.	.	.	16d\JJ	.	16f#/JJ	.	16b/JJ	.	.	.	.	.	.	.	.	.
*	*	*	*	*	*	*	*	*	*	*	*	*	*	*	*	*	*	*	*Xtremolo	*	*Xrep	*	*	*	*	*	*	*	*	*	*	*
=46	=46	=46	=46	=46	=46	=46	=46	=46	=46	=46	=46	=46	=46	=46	=46	=46	=46	=46	=46	=46	=46	=46	=46	=46	=46	=46	=46	=46	=46	=46	=46	=46
*	*	*	*	*	*	*	*	*	*	*	*	*	*	*	*	*	*	*	*rep	*	*rep	*	*	*	*	*	*	*	*	*	*	*
4B\	p	4B\	p	16d\	mê-	.	4.D\	-ger!	.	8d\	-ment	.	8f#\	-ment	.	8dd\	-ment	.	16d\LL	.	16f#/LL	.	16b/LL	.	4.r	.	4.r	.	4.r	.	4.r	.
.	.	.	.	16d\	-me	.	.	.	.	.	.	.	.	.	.	.	.	.	16d\	.	16f#/	.	16b/	.	.	.	.	.	.	.	.	.
.	.	.	.	16B\	qui	.	.	.	.	8d\	le	.	8f#\	le	.	8dd\	le	.	16d\	.	16f#/	.	16b/	.	.	.	.	.	.	.	.	.
.	.	.	.	16B\	dois	.	.	.	.	.	.	.	.	.	.	.	.	.	16d\	.	16f#/	.	16b/	.	.	.	.	.	.	.	.	.
8r	.	8r	.	8F#\	le	.	.	.	.	8d\	sau-	.	8f#\	sau-	.	8dd\	sau-	.	16d\	.	16f#/	.	16b/	.	.	.	.	.	.	.	.	.
.	.	.	.	.	.	.	.	.	.	.	.	.	.	.	.	.	.	.	16d\JJ	.	16f#/JJ	.	16b/JJ	.	.	.	.	.	.	.	.	.
*	*	*	*	*	*	*	*	*	*	*	*	*	*	*	*	*	*	*	*Xrep	*	*Xrep	*	*	*	*	*	*	*	*	*	*	*
=47	=47	=47	=47	=47	=47	=47	=47	=47	=47	=47	=47	=47	=47	=47	=47	=47	=47	=47	=47	=47	=47	=47	=47	=47	=47	=47	=47	=47	=47	=47	=47	=47
*	*	*	*	*	*	*	*	*	*	*	*	*	*	*	*	*	*	*	*rep	*	*tremolo	*	*	*	*	*	*	*	*	*	*	*
4GGn/	ff	4GGn/	f	4Gn\	pro-	.	16D\	c'est	.	4d\	-ver?	.	4d\	-ver?	.	4dd\	-ver?	.	16d\LL	fp	16gn/LL	fp	16b-X\LL	fp	8GGn/	f	8b-X 8d\	ff	8dd 8d/	ff	8ggn 8b-X 8d\	ff
.	.	.	.	.	.	.	16D\	ma	.	.	.	.	.	.	.	.	.	.	16d\	fp	16g/	.	16b-\	.	.	.	.	.	.	.	.	.
.	.	.	.	.	.	.	16Gn\	fe-	.	.	.	.	.	.	.	.	.	.	16d\	.	16g/	.	16b-\	.	8r	.	8r	.	8r	.	8r	.
.	.	.	.	.	.	.	16G\	-me	.	.	.	.	.	.	.	.	.	.	16d\	.	16g/	.	16b-\	.	.	.	.	.	.	.	.	.
8r	.	8r	.	8D\	-té-	.	8A\	qu'il	.	8r	.	.	8r	.	.	8r	.	.	16d\	.	16g/	.	16b-\	.	8r	.	8r	.	8r	.	8r	.
.	.	.	.	.	.	.	.	.	.	.	.	.	.	.	.	.	.	.	16d\JJ	.	16g/JJ	.	16b-\JJ	.	.	.	.	.	.	.	.	.
*	*	*	*	*	*	*	*	*	*	*	*	*	*	*	*	*	*	*	*Xrep	*	*Xtremolo	*	*Xtremolo	*	*	*	*	*	*	*	*	*
=48	=48	=48	=48	=48	=48	=48	=48	=48	=48	=48	=48	=48	=48	=48	=48	=48	=48	=48	=48	=48	=48	=48	=48	=48	=48	=48	=48	=48	=48	=48	=48	=48
*	*	*	*	*	*	*	*	*	*	*	*	*	*	*	*	*	*	*	*rep	*	*rep	*	*rep	*	*	*	*	*	*	*	*	*
4Gn\	p	4Gn\	p	4.Gn\	-ger.	.	16B-X\	ai-	.	4.r	.	.	4.r	.	.	4.r	.	.	16d\LL	.	16gn/LL	.	16b-X\LL	.	4.r	.	4.r	.	4.r	.	4.r	.
.	.	.	.	.	.	.	16B-\	-me	.	.	.	.	.	.	.	.	.	.	16d\	.	16g/	.	16b-\	.	.	.	.	.	.	.	.	.
.	.	.	.	.	.	.	16Gn\	je	.	.	.	.	.	.	.	.	.	.	16d\	.	16g/	.	16b-\	.	.	.	.	.	.	.	.	.
.	.	.	.	.	.	.	16G\	sau-	.	.	.	.	.	.	.	.	.	.	16d\	.	16g/	.	16b-\	.	.	.	.	.	.	.	.	.
8r	.	8r	.	.	.	.	8D\	-rais	.	.	.	.	.	.	.	.	.	.	16d\	.	16g/	.	16b-\	.	.	.	.	.	.	.	.	.
.	.	.	.	.	.	.	.	.	.	.	.	.	.	.	.	.	.	.	16d\JJ	.	16g/JJ	.	16b-\JJ	.	.	.	.	.	.	.	.	.
*	*	*	*	*	*	*	*	*	*	*	*	*	*	*	*	*	*	*	*Xrep	*	*Xrep	*	*Xrep	*	*	*	*	*	*	*	*	*
=49	=49	=49	=49	=49	=49	=49	=49	=49	=49	=49	=49	=49	=49	=49	=49	=49	=49	=49	=49	=49	=49	=49	=49	=49	=49	=49	=49	=49	=49	=49	=49	=49
*	*	*tremolo	*	*	*	*	*	*	*	*	*	*	*	*	*	*	*	*	*tremolo	*	*rep	*	*rep	*	*	*	*	*	*	*	*	*
8E-X\	.	8E-X\L	.	4E-X\	Oui!	.	16E-X\	me	.	4.r	.	.	4.r	.	.	4.r	.	.	16e-X\LL	fp	16gn/LL	fp	16b-X\LL	fp	4E-X\	p	4.e-X\	p	4.gn/	p	4.b-X\	p
.	.	.	.	.	.	.	16Gn\	ven-	.	.	.	.	.	.	.	.	.	.	16e-\	.	16g/	.	16b-\	.	.	.	.	.	.	.	.	.
8r	.	8E-\	.	.	.	.	16B-X\	-ger;	.	.	.	.	.	.	.	.	.	.	16e-\	.	16g/	.	16b-\	.	.	.	.	.	.	.	.	.
.	.	.	.	.	.	.	16G\	c'est	.	.	.	.	.	.	.	.	.	.	16e-\	.	16g/	.	16b-\	.	.	.	.	.	.	.	.	.
8E-\	.	8E-\J	.	8BB-X/	je	.	8e-X^\	el-	.	.	.	.	.	.	.	.	.	.	16e-\	.	16g/	.	16b-\	.	8r	.	.	.	.	.	.	.
.	.	.	.	.	.	.	.	.	.	.	.	.	.	.	.	.	.	.	16e-\JJ	.	16g/JJ	.	16b-\JJ	.	.	.	.	.	.	.	.	.
*	*	*	*	*	*	*	*	*	*	*	*	*	*	*	*	*	*	*	*Xtremolo	*	*Xrep	*	*Xrep	*	*	*	*	*	*	*	*	*
!!LO:PB:g=original
=50	=50	=50	=50	=50	=50	=50	=50	=50	=50	=50	=50	=50	=50	=50	=50	=50	=50	=50	=50	=50	=50	=50	=50	=50	=50	=50	=50	=50	=50	=50	=50	=50
*	*	*	*	*	*	*	*	*	*	*	*	*	*	*	*	*	*	*	*tremolo	*	*tremolo	*	*tremolo	*	*	*	*	*	*	*	*	*
8BB-X/	.	8BB-X/L	.	16D\	dois	.	16d\	-le	.	4.r	.	.	4.r	.	.	4.r	.	.	16d\LL	fp	16fn/LL	fp	16b-X\LL	fp	4.BB-X/	.	[4.fn\	.	4.b-X\	.	4.dd\	.
.	.	.	.	16Fn\	le	.	16B-X\	qu'il	.	.	.	.	.	.	.	.	.	.	16d\	.	16f/	.	16b-\	.	.	.	.	.	.	.	.	.
8r	.	8BB-/	.	16B-X\	pro-	.	8Fn\	ai-	.	.	.	.	.	.	.	.	.	.	16d\	.	16f/	.	16b-\	.	.	.	.	.	.	.	.	.
.	.	.	.	16F\	-té-	.	.	.	.	.	.	.	.	.	.	.	.	.	16d\	.	16f/	.	16b-\	.	.	.	.	.	.	.	.	.
8BB-/	.	8BB-/J	.	8d^<\	-ger,	.	8F\	-me	.	.	.	.	.	.	.	.	.	.	16d\	.	16f/	.	16b-\	.	.	.	.	.	.	.	.	.
.	.	.	.	.	.	.	.	.	.	.	.	.	.	.	.	.	.	.	16d\JJ	.	16f/JJ	.	16b-\JJ	.	.	.	.	.	.	.	.	.
=51	=51	=51	=51	=51	=51	=51	=51	=51	=51	=51	=51	=51	=51	=51	=51	=51	=51	=51	=51	=51	=51	=51	=51	=51	=51	=51	=51	=51	=51	=51	=51	=51
8Fn\	.	8Fn\L	.	4cn\	oui,	.	16Fn\	je	.	4.r	.	.	4.r	.	.	4.r	.	.	16cn\LL	fp	16fn/LL	fp	16a/LL	fp	4.Fn\	.	4.f\]	.	4.cn/	.	4.a/	.
.	.	.	.	.	.	.	16F\	sau-	.	.	.	.	.	.	.	.	.	.	16c\	.	16f/	.	16a/	.	.	.	.	.	.	.	.	.
8r	.	8F\	.	.	.	.	16A\	-rais	.	.	.	.	.	.	.	.	.	.	16c\	.	16f/	.	16a/	.	.	.	.	.	.	.	.	.
.	.	.	.	.	.	.	16A\	me	.	.	.	.	.	.	.	.	.	.	16c\	.	16f/	.	16a/	.	.	.	.	.	.	.	.	.
8F\	.	8F\J	.	8B\	je	.	8cn^\	ven-	.	.	.	.	.	.	.	.	.	.	16c\	.	16f/	.	16a/	.	.	.	.	.	.	.	.	.
.	.	.	.	.	.	.	.	.	.	.	.	.	.	.	.	.	.	.	16c\JJ	.	16f/JJ	.	16a/JJ	.	.	.	.	.	.	.	.	.
*	*	*Xtremolo	*	*	*	*	*	*	*	*	*	*	*	*	*	*	*	*	*Xtremolo	*	*Xtremolo	*	*Xtremolo	*	*	*	*	*	*	*	*	*
=52	=52	=52	=52	=52	=52	=52	=52	=52	=52	=52	=52	=52	=52	=52	=52	=52	=52	=52	=52	=52	=52	=52	=52	=52	=52	=52	=52	=52	=52	=52	=52	=52
!	!	!LO:TX:t=P:problem:mixed beam	!	!	!	!	!	!	!	!	!	!	!	!	!	!	!	!	!	!	!	!	!	!	!	!	!	!	!	!	!	!
8A\	.	8A\L	.	16E\	dois	.	4A\	-ger	.	4.r	.	.	4.r	.	.	4.r	.	.	(16cn\LL	.	(16e/LL	.	(16a/LL	.	4.AA/	.	[4.en\	.	4.a/	.	4.ccn\	.
.	.	.	.	16E\	le	.	.	.	.	.	.	.	.	.	.	.	.	.	16e\)	.	16a/)	.	16ccn/)	.	.	.	.	.	.	.	.	.
8r	.	8A\	.	16A\	pro-	.	.	.	.	.	.	.	.	.	.	.	.	.	16e\	.	16a/	.	16cc/	.	.	.	.	.	.	.	.	.
.	.	.	.	16A\	-té-	.	.	.	.	.	.	.	.	.	.	.	.	.	16e\	.	16a/	.	16cc/	.	.	.	.	.	.	.	.	.
8AA/	.	8AA/J	.	8cn^<\	-ger,	.	8E\	oui	.	.	.	.	.	.	.	.	.	.	16e\	.	16a/	.	16cc/	.	.	.	.	.	.	.	.	.
.	.	.	.	.	.	.	.	.	.	.	.	.	.	.	.	.	.	.	16e\JJ	.	16a/JJ	.	16cc/JJ	.	.	.	.	.	.	.	.	.
=53	=53	=53	=53	=53	=53	=53	=53	=53	=53	=53	=53	=53	=53	=53	=53	=53	=53	=53	=53	=53	=53	=53	=53	=53	=53	=53	=53	=53	=53	=53	=53	=53
*	*	*	*	*	*	*	*	*	*	*	*	*	*	*	*	*	*	*	*tremolo	*	*tremolo	*	*tremolo	*	*	*	*	*	*	*	*	*
8E\	.	8E\	.	4E\	oui,	.	16E\	je	.	8r	.	.	8r	.	.	8r	.	.	16e\LL	.	16g#X\LL	.	16b\LL	.	8E\	.	8e\]	.	8g#X/	.	8b\	.
.	.	.	.	.	.	.	16E\	sau-	.	.	.	.	.	.	.	.	.	.	16e\	.	16g#\	.	16b\	.	.	.	.	.	.	.	.	.
8r	.	8r	.	.	.	.	16G#X\	-rais	.	8r	.	.	8r	.	.	8r	.	.	16e\	.	16g#\	.	16b\	.	8r	.	8r	.	8r	.	8r	.
.	.	.	.	.	.	.	16G#\	me	.	.	.	.	.	.	.	.	.	.	16e\	.	16g#\	.	16b\	.	.	.	.	.	.	.	.	.
8r	.	8r	.	8E\	je	.	8B^\	ven-	.	8e\	O	.	8g#X\	O	.	8b\	O	.	16e\	.	16g#\	.	16b\	.	8r	.	8r	.	8r	.	8r	.
.	.	.	.	.	.	.	.	.	.	.	.	.	.	.	.	.	.	.	16e\JJ	.	16g#\JJ	.	16b\JJ	.	.	.	.	.	.	.	.	.
*	*	*	*	*	*	*	*	*	*	*	*	*	*	*	*	*	*	*	*Xtremolo	*	*Xtremolo	*	*Xtremolo	*	*	*	*	*	*	*	*	*
=54	=54	=54	=54	=54	=54	=54	=54	=54	=54	=54	=54	=54	=54	=54	=54	=54	=54	=54	=54	=54	=54	=54	=54	=54	=54	=54	=54	=54	=54	=54	=54	=54
8D#X\	.	8D#X\	.	4F#\	dois,	.	4.B\	-ger,	.	4e\	ciel!	.	4a\	ciel!	.	4b\	ciel!	.	(4.B/	.	(4.b\	.	(4.b/	.	4.r	.	4.r	.	4.r	.	4.r	.
8r	.	8r	.	.	.	.	.	.	.	.	.	.	.	.	.	.	.	.	.	.	.	.	.	.	.	.	.	.	.	.	.	.
8r	.	8r	.	8BB/	je	.	.	.	.	8d#X\	com-	.	8a\	com-	.	8b\	com-	.	.	.	.	.	.	.	.	.	.	.	.	.	.	.
=55	=55	=55	=55	=55	=55	=55	=55	=55	=55	=55	=55	=55	=55	=55	=55	=55	=55	=55	=55	=55	=55	=55	=55	=55	=55	=55	=55	=55	=55	=55	=55	=55
8E\	.	8E\	.	4E\	dois	.	4E\	je	.	4dn\	-ment...	.	4a\	-ment...	.	4b\	-ment...	.	8e\)	.	8e/)	.	8e/)	.	4.r	.	4.r	.	4.r	.	4.r	.
8r	.	8r	.	.	.	.	.	.	.	.	.	.	.	.	.	.	.	.	8r	.	8r	.	8r	.	.	.	.	.	.	.	.	.
8r	.	8r	.	8E\	le	.	8E\	sau-	.	8d\	com-	.	8g#\	com-	.	8b\	com-	.	8r	.	8r	.	8r	.	.	.	.	.	.	.	.	.
=56	=56	=56	=56	=56	=56	=56	=56	=56	=56	=56	=56	=56	=56	=56	=56	=56	=56	=56	=56	=56	=56	=56	=56	=56	=56	=56	=56	=56	=56	=56	=56	=56
4.r	.	4.r	.	4.AA/	pro-	.	4E\	-rais	.	8.d\L	-ment	.	8.g#\L	-ment	.	8.b\L	-ment	.	4.r	.	4.r	.	4.r	.	4.r	.	4.r	.	4.r	.	4.r	.
.	.	.	.	.	.	.	.	.	.	16c#\Jk	.	.	16a\Jk	.	.	16a\Jk	.	.	.	.	.	.	.	.	.	.	.	.	.	.	.	.
.	.	.	.	.	.	.	8E\	me	.	16e\LL	me	.	16g#\LL	le	.	16b\LL	le	.	.	.	.	.	.	.	.	.	.	.	.	.	.	.
.	.	.	.	.	.	.	.	.	.	16A\JJ	.	.	16gn\JJ	.	.	16cc#\JJ	.	.	.	.	.	.	.	.	.	.	.	.	.	.	.	.
=57	=57	=57	=57	=57	=57	=57	=57	=57	=57	=57	=57	=57	=57	=57	=57	=57	=57	=57	=57	=57	=57	=57	=57	=57	=57	=57	=57	=57	=57	=57	=57	=57
8A#X|>\L	f	8c#|>\L	f	8AA#X/	-te-	.	8c#\	ven-	.	8c#\	sau-	.	8gn\	sau-	.	8ee\	sau-	.	8c#|>\L	f	8gn|</L	f	8ee|>\L	f	4.r	.	4.r	.	4.r	.	4.r	.
8B|>\J	.	8B|>\J	.	8BB/	-ger?	.	8B^<\	-ger.	.	8d^\	-ver?	.	8f#^\	-ver?	.	8dd^\	-ver?	.	8d|>\J	.	8f#|</J	.	8dd|>\J	.	.	.	.	.	.	.	.	.
8r	.	8r	.	8r	.	.	8r	.	.	8r	.	.	8r	.	.	8r	.	.	8r	.	8r	.	8r	.	.	.	.	.	.	.	.	.
!!LO:PB:g=original
=58	=58	=58	=58	=58	=58	=58	=58	=58	=58	=58	=58	=58	=58	=58	=58	=58	=58	=58	=58	=58	=58	=58	=58	=58	=58	=58	=58	=58	=58	=58	=58	=58
[4.EE/	pp	4.ryy	.	4.r	.	.	4.r	.	.	4.r	.	.	4.r	.	.	4.r	.	.	4.ryy	.	4.ryy	.	4.ryy	.	4.ryy	.	4.ryy	.	4.ryy	.	4.ryy	.
=59	=59	=59	=59	=59	=59	=59	=59	=59	=59	=59	=59	=59	=59	=59	=59	=59	=59	=59	=59	=59	=59	=59	=59	=59	=59	=59	=59	=59	=59	=59	=59	=59
4.EE/_	.	4.ryy	.	4.r	.	.	4.r	.	.	4.r	.	.	4.r	.	.	16e/	Co(m)-	.	4.ryy	.	4.ryy	.	4.ryy	.	4.ryy	.	4.ryy	.	4.ryy	.	4.ryy	.
.	.	.	.	.	.	.	.	.	.	.	.	.	.	.	.	16e/	-ment	.	.	.	.	.	.	.	.	.	.	.	.	.	.	.
.	.	.	.	.	.	.	.	.	.	.	.	.	.	.	.	16a\	le	.	.	.	.	.	.	.	.	.	.	.	.	.	.	.
.	.	.	.	.	.	.	.	.	.	.	.	.	.	.	.	16a\	sau-	.	.	.	.	.	.	.	.	.	.	.	.	.	.	.
.	.	.	.	.	.	.	.	.	.	.	.	.	.	.	.	[8cc#^\	-ver?	.	.	.	.	.	.	.	.	.	.	.	.	.	.	.
=60	=60	=60	=60	=60	=60	=60	=60	=60	=60	=60	=60	=60	=60	=60	=60	=60	=60	=60	=60	=60	=60	=60	=60	=60	=60	=60	=60	=60	=60	=60	=60	=60
4.EE/_	.	4.ryy	.	4.r	.	.	4.r	.	.	4.r	.	.	16c#\	Co(m)-	.	4.cc#\_	.	.	4.ryy	.	4.ryy	.	4.ryy	.	4.ryy	.	4.ryy	.	4.ryy	.	4.ryy	.
.	.	.	.	.	.	.	.	.	.	.	.	.	16c#\	-ment	.	.	.	.	.	.	.	.	.	.	.	.	.	.	.	.	.	.
.	.	.	.	.	.	.	.	.	.	.	.	.	16e\	le	.	.	.	.	.	.	.	.	.	.	.	.	.	.	.	.	.	.
.	.	.	.	.	.	.	.	.	.	.	.	.	16e\	sau-	.	.	.	.	.	.	.	.	.	.	.	.	.	.	.	.	.	.
.	.	.	.	.	.	.	.	.	.	.	.	.	[8a^\	-ver?	.	.	.	.	.	.	.	.	.	.	.	.	.	.	.	.	.	.
=61	=61	=61	=61	=61	=61	=61	=61	=61	=61	=61	=61	=61	=61	=61	=61	=61	=61	=61	=61	=61	=61	=61	=61	=61	=61	=61	=61	=61	=61	=61	=61	=61
4.EE/_	.	4.ryy	.	4.r	.	.	4.r	.	.	16A\	Co(m)-	.	4.a\_	.	.	4.cc#\_	.	.	4.ryy	.	4.ryy	.	4.ryy	.	4.ryy	.	4.ryy	.	4.ryy	.	4.ryy	.
.	.	.	.	.	.	.	.	.	.	16A\	-ment	.	.	.	.	.	.	.	.	.	.	.	.	.	.	.	.	.	.	.	.	.
.	.	.	.	.	.	.	.	.	.	16c#\	me	.	.	.	.	.	.	.	.	.	.	.	.	.	.	.	.	.	.	.	.	.
.	.	.	.	.	.	.	.	.	.	16c#\	sau-	.	.	.	.	.	.	.	.	.	.	.	.	.	.	.	.	.	.	.	.	.
.	.	.	.	.	.	.	.	.	.	[8e^\	-ver?	.	.	.	.	.	.	.	.	.	.	.	.	.	.	.	.	.	.	.	.	.
=62	=62	=62	=62	=62	=62	=62	=62	=62	=62	=62	=62	=62	=62	=62	=62	=62	=62	=62	=62	=62	=62	=62	=62	=62	=62	=62	=62	=62	=62	=62	=62	=62
(4.EE/]	.	4.ryy	.	4.r	.	.	16E\	Je	.	4.e\_	.	.	4.a\_	.	.	4.cc#\_	.	.	4.ryy	.	4.ryy	.	4.ryy	.	4.ryy	.	4.ryy	.	4.ryy	.	4.ryy	.
.	.	.	.	.	.	.	16E\	me	.	.	.	.	.	.	.	.	.	.	.	.	.	.	.	.	.	.	.	.	.	.	.	.
.	.	.	.	.	.	.	16A\	ven-	.	.	.	.	.	.	.	.	.	.	.	.	.	.	.	.	.	.	.	.	.	.	.	.
.	.	.	.	.	.	.	16A\	-ge-	.	.	.	.	.	.	.	.	.	.	.	.	.	.	.	.	.	.	.	.	.	.	.	.
.	.	.	.	.	.	.	[8c#^\	-rai!	.	.	.	.	.	.	.	.	.	.	.	.	.	.	.	.	.	.	.	.	.	.	.	.
=63	=63	=63	=63	=63	=63	=63	=63	=63	=63	=63	=63	=63	=63	=63	=63	=63	=63	=63	=63	=63	=63	=63	=63	=63	=63	=63	=63	=63	=63	=63	=63	=63
8AA/)	.	4.ryy	.	16C#/	Je	.	4.c#\]	.	.	4.e\]	.	.	4.a\]	.	.	4.cc#\]	.	.	4.ryy	.	4.ryy	.	4.ryy	.	4.ryy	.	4.ryy	.	4.ryy	.	4.ryy	.
.	.	.	.	16C#/	dois	.	.	.	.	.	.	.	.	.	.	.	.	.	.	.	.	.	.	.	.	.	.	.	.	.	.	.
8r	.	.	.	16E\	pro-	.	.	.	.	.	.	.	.	.	.	.	.	.	.	.	.	.	.	.	.	.	.	.	.	.	.	.
.	.	.	.	16E\	-té-	.	.	.	.	.	.	.	.	.	.	.	.	.	.	.	.	.	.	.	.	.	.	.	.	.	.	.
8r	.	.	.	8A^\	-ger,	.	.	.	.	.	.	.	.	.	.	.	.	.	.	.	.	.	.	.	.	.	.	.	.	.	.	.
=64	=64	=64	=64	=64	=64	=64	=64	=64	=64	=64	=64	=64	=64	=64	=64	=64	=64	=64	=64	=64	=64	=64	=64	=64	=64	=64	=64	=64	=64	=64	=64	=64
8D\	ff	8D\	ff	8D\	oui!	.	8A\	oui!	f	8fn\	Ciel!	f	8a\	Ciel!	f	8dd\	Ciel!	f	8A\ 8fn	ff	8d/ 8a	ff	8fn/ 8dd	ff	8A\	ff	8a\	ff	8a\ 8aa	ff	8a\ 8aa	ff
8r	.	8r	.	8r	.	.	8r	.	.	8r	.	.	8r	.	.	8r	.	.	8r	.	8r	.	8r	.	8r	.	8r	.	8r	.	8r	.
8r	.	8r	.	8r	.	pp	8r	.	pp	16r	.	.	16r	.	.	16r	.	.	8r	.	8r	.	8r	.	8r	.	8r	.	8r	.	8r	.
!	!	!	!	!	!	!	!	!	!	!	!	!LO:DY:a	!	!	!	!	!	!LO:DY:a	!	!	!	!	!	!	!	!	!	!	!	!	!	!
!	!	!	!	!	!	!	!	!	!	!	!	!	!	!	!LO:DY:b	!	!	!	!	!	!	!	!	!	!	!	!	!	!	!	!	!
.	.	.	.	.	.	.	.	.	.	16fn\	com-	pp	16a\	Com-	pp	16dd\	Com-	pp	.	.	.	.	.	.	.	.	.	.	.	.	.	.
=65	=65	=65	=65	=65	=65	=65	=65	=65	=65	=65	=65	=65	=65	=65	=65	=65	=65	=65	=65	=65	=65	=65	=65	=65	=65	=65	=65	=65	=65	=65	=65	=65
4.r	.	4.r	.	16r	.	.	16r	.	.	16fn\	-ment	.	16a\	-ment	.	16dd\	-ment	.	4.r	.	4.r	.	4.r	.	4.r	.	4.r	.	4.r	.	4.r	.
.	.	.	.	16A\	a	.	16A\	oui!	.	16r	.	.	16r	.	.	16r	.	.	.	.	.	.	.	.	.	.	.	.	.	.	.	.
.	.	.	.	16r	.	.	16r	.	.	16f\	me	.	16a\	le	.	16dd\	le	.	.	.	.	.	.	.	.	.	.	.	.	.	.	.
.	.	.	.	16A\	pre-	.	16A\	c'est	.	16r	.	.	16r	.	.	16r	.	.	.	.	.	.	.	.	.	.	.	.	.	.	.	.
.	.	.	.	16r	.	.	16r	.	.	16f\	sau-	.	16a\	sau-	.	16dd\	sau-	.	.	.	.	.	.	.	.	.	.	.	.	.	.	.
.	.	.	.	16A\	-sent	.	16A\	ma	.	16r	.	.	16r	.	.	16r	.	.	.	.	.	.	.	.	.	.	.	.	.	.	.	.
!!LO:PB:g=original
=66	=66	=66	=66	=66	=66	=66	=66	=66	=66	=66	=66	=66	=66	=66	=66	=66	=66	=66	=66	=66	=66	=66	=66	=66	=66	=66	=66	=66	=66	=66	=66	=66
4.r	.	4.r	.	16r	.	.	16r	.	.	16e\	-ver,	.	16a\	-ver	.	16cc#\	-ver,	.	4.ryy	.	4.ryy	.	4.ryy	.	4.ryy	.	4.ryy	.	4.ryy	.	4.ryy	.
.	.	.	.	16A\	Je	.	16A\	fem-	.	16r	.	.	16r	.	.	16r	.	.	.	.	.	.	.	.	.	.	.	.	.	.	.	.
.	.	.	.	16r	.	.	16r	.	.	16e\	co(m)-	.	16a\	co(m)-	.	16cc#\	com-	.	.	.	.	.	.	.	.	.	.	.	.	.	.	.
.	.	.	.	16A\	dois	.	16A\	-me	.	16r	.	.	16r	.	.	16r	.	.	.	.	.	.	.	.	.	.	.	.	.	.	.	.
.	.	.	.	16r	.	.	16r	.	.	16e\	-ment	.	16a\	-ment	.	16cc#\	-ment	.	.	.	.	.	.	.	.	.	.	.	.	.	.	.
.	.	.	.	16A\	le	.	16A\	qu'il	.	16r	.	.	16r	.	.	16r	.	.	.	.	.	.	.	.	.	.	.	.	.	.	.	.
=67	=67	=67	=67	=67	=67	=67	=67	=67	=67	=67	=67	=67	=67	=67	=67	=67	=67	=67	=67	=67	=67	=67	=67	=67	=67	=67	=67	=67	=67	=67	=67	=67
4.r	.	4.r	.	4AA^>/	pro-	.	4.A^\	ai-	.	4d#X^\	me	.	4f#^\	le	.	4b#X^\	le	.	4.ryy	.	4.ryy	.	4.ryy	.	4.ryy	.	4.ryy	.	4.ryy	.	4.ryy	.
.	.	.	.	8AA/	-te-	.	.	.	.	8d#\	sau-	.	8f#\	sau-	.	8b#\	sau-	.	.	.	.	.	.	.	.	.	.	.	.	.	.	.
=68	=68	=68	=68	=68	=68	=68	=68	=68	=68	=68	=68	=68	=68	=68	=68	=68	=68	=68	=68	=68	=68	=68	=68	=68	=68	=68	=68	=68	=68	=68	=68	=68
8r	pp	8r	pp	8AA/	-ger,	.	8AA/	-me,	.	4e\	-ver?	.	4e\	-ver?	.	4cc#\	-ver?	.	8r	pp	8r	pp	8r	pp	4.ryy	.	4.ryy	.	4.ryy	.	4.ryy	.
(8C#/L	.	(8C#\L	.	8C#/	oui	.	8C#/	oui	.	.	.	.	.	.	.	.	.	.	(8c#\L	.	(>8c#/L	.	(>8c#/L	.	.	.	.	.	.	.	.	.
8E/J	.	8E\J	.	8E\	je	.	8E\	il	.	8r	.	.	8r	.	.	8r	.	.	8e\J	.	8e/J	.	8e/J	.	.	.	.	.	.	.	.	.
=69	=69	=69	=69	=69	=69	=69	=69	=69	=69	=69	=69	=69	=69	=69	=69	=69	=69	=69	=69	=69	=69	=69	=69	=69	=69	=69	=69	=69	=69	=69	=69	=69
8A\)	.	8A\)	.	8A\	dois	.	8A\	ai-	.	4.r	.	.	4.r	.	.	4.r	.	.	8a\)	.	8a/)	.	8a/)	.	8r	pp	8r	pp	8r	pp	8r	pp
(>8C#/L	.	8r	.	8C#\	à	.	8C#\	-me	.	.	.	.	.	.	.	.	.	.	8r	.	8r	.	8r	.	(>8C#/L	.	(8c#\L	.	(>8c#/L	.	(>8c#/L	.
8E/J	.	8r	.	8E\	pré-	.	8E\	ma	.	.	.	.	.	.	.	.	.	.	8r	.	8r	.	8r	.	8E/J	.	8e\J	.	8e/J	.	8e/J	.
=70	=70	=70	=70	=70	=70	=70	=70	=70	=70	=70	=70	=70	=70	=70	=70	=70	=70	=70	=70	=70	=70	=70	=70	=70	=70	=70	=70	=70	=70	=70	=70	=70
8AA/)	.	4.r	.	16A\	-sent,	.	16A\	fem-	.	16r	.	.	16r	.	.	16r	.	.	4.r	.	4.r	.	4.r	.	8AA/)	.	8A\)	.	8A/)	.	8A/)	.
.	.	.	.	16r	.	.	16r	.	.	16c#\	Co(m)-	.	16e\	Co(m)-	.	16a\	Co(m)-	.	.	.	.	.	.	.	.	.	.	.	.	.	.	.
8r	.	.	.	16D\	je	.	16D\	-me,	.	16r	.	.	16r	.	.	16r	.	.	.	.	.	.	.	.	8r	.	8r	.	8r	.	8r	.
.	.	.	.	16r	.	.	16r	.	.	16d\	-ment	.	16fn\	-ment	.	16a\	-ment	.	.	.	.	.	.	.	.	.	.	.	.	.	.	.
8r	.	.	.	16A\	dois	.	16A\	c'est	.	16r	.	.	16r	.	.	16r	.	.	.	.	.	.	.	.	8r	.	8r	.	8r	.	8r	.
.	.	.	.	16r	.	.	16r	.	.	16c#\	me	.	16e\	le	.	16a\	le,	.	.	.	.	.	.	.	.	.	.	.	.	.	.	.
=71	=71	=71	=71	=71	=71	=71	=71	=71	=71	=71	=71	=71	=71	=71	=71	=71	=71	=71	=71	=71	=71	=71	=71	=71	=71	=71	=71	=71	=71	=71	=71	=71
4.r	.	4.r	.	16D\	le	.	16D\	el-	.	16r	.	.	16r	.	.	16r	.	.	4.r	.	4.r	.	4.r	.	4.r	.	4.r	.	4.r	.	4.r	.
.	.	.	.	16r	.	.	16r	.	.	16d\	sau-	.	16fn\	sau-	.	16a\	sau-	.	.	.	.	.	.	.	.	.	.	.	.	.	.	.
.	.	.	.	16A\	pro-	.	16A\	-le	.	16r	.	.	16r	.	.	16r	.	.	.	.	.	.	.	.	.	.	.	.	.	.	.	.
.	.	.	.	16r	.	.	16r	.	.	16c#\	-ver?	.	16e\	-ver?	.	16a\	-ver,	.	.	.	.	.	.	.	.	.	.	.	.	.	.	.
.	.	.	.	16D\	-tè-	.	16D\	qu'il	.	16r	.	.	16r	.	.	16r	.	.	.	.	.	.	.	.	.	.	.	.	.	.	.	.
.	.	.	.	16r	.	.	16r	.	.	16d\	o	.	16f\	o	.	16a\	o	.	.	.	.	.	.	.	.	.	.	.	.	.	.	.
=72	=72	=72	=72	=72	=72	=72	=72	=72	=72	=72	=72	=72	=72	=72	=72	=72	=72	=72	=72	=72	=72	=72	=72	=72	=72	=72	=72	=72	=72	=72	=72	=72
*	*	*	*	*	*	*	*	*	*	*	*	*	*	*	*	*	*	*	*tremolo	*	*tremolo	*	*tremolo	*	*	*	*	*	*	*	*	*
!	!	!	!	!	!	!	!	!	!	!	!	!	!	!	!	!	!	!LO:DY:a	!	!	!	!	!	!	!	!	!	!	!	!	!	!
(4A\	p	(4A\	p	[>4.AA/	-ger.	<[	[4.E\	aime.-	<[	[4.A/	ciel!	<[	[4.e\	ciel!	<[	[4.cc#\	ciel!	<[	64c#\LLLL	<	64e/LLLL	p <	64a/LLLL	p <	4.r	.	4.r	.	4.r	.	4.r	.
.	.	.	.	.	.	.	.	.	.	.	.	.	.	.	.	.	.	.	64c#\	.	64e/	.	64a/	.	.	.	.	.	.	.	.	.
.	.	.	.	.	.	.	.	.	.	.	.	.	.	.	.	.	.	.	64c#\	.	64e/	.	64a/	.	.	.	.	.	.	.	.	.
.	.	.	.	.	.	.	.	.	.	.	.	.	.	.	.	.	.	.	64c#\	.	64e/	.	64a/	.	.	.	.	.	.	.	.	.
.	.	.	.	.	.	.	.	.	.	.	.	.	.	.	.	.	.	.	64c#\	.	64e/	.	64a/	.	.	.	.	.	.	.	.	.
.	.	.	.	.	.	.	.	.	.	.	.	.	.	.	.	.	.	.	64c#\	.	64e/	.	64a/	.	.	.	.	.	.	.	.	.
.	.	.	.	.	.	.	.	.	.	.	.	.	.	.	.	.	.	.	64c#\	.	64e/	.	64a/	.	.	.	.	.	.	.	.	.
.	.	.	.	.	.	.	.	.	.	.	.	.	.	.	.	.	.	.	64c#\	.	64e/	.	64a/	.	.	.	.	.	.	.	.	.
.	.	.	.	.	.	.	.	.	.	.	.	.	.	.	.	.	.	.	64c#\	.	64e/	.	64a/	.	.	.	.	.	.	.	.	.
.	.	.	.	.	.	.	.	.	.	.	.	.	.	.	.	.	.	.	64c#\	.	64e/	.	64a/	.	.	.	.	.	.	.	.	.
.	.	.	.	.	.	.	.	.	.	.	.	.	.	.	.	.	.	.	64c#\	.	64e/	.	64a/	.	.	.	.	.	.	.	.	.
.	.	.	.	.	.	.	.	.	.	.	.	.	.	.	.	.	.	.	64c#\	.	64e/	.	64a/	.	.	.	.	.	.	.	.	.
.	.	.	.	.	.	.	.	.	.	.	.	.	.	.	.	.	.	.	64c#\	.	64e/	.	64a/	.	.	.	.	.	.	.	.	.
.	.	.	.	.	.	.	.	.	.	.	.	.	.	.	.	.	.	.	64c#\	.	64e/	.	64a/	.	.	.	.	.	.	.	.	.
.	.	.	.	.	.	.	.	.	.	.	.	.	.	.	.	.	.	.	64c#\	.	64e/	.	64a/	.	.	.	.	.	.	.	.	.
.	.	.	.	.	.	.	.	.	.	.	.	.	.	.	.	.	.	.	64c#\	.	64e/	.	64a/	.	.	.	.	.	.	.	.	.
8E\	.	8E\	.	.	.	.	.	.	.	.	.	.	.	.	.	.	.	.	64c#\	.	64e/	.	64a/	.	.	.	.	.	.	.	.	.
.	.	.	.	.	.	.	.	.	.	.	.	.	.	.	.	.	.	.	64c#\	.	64e/	.	64a/	.	.	.	.	.	.	.	.	.
.	.	.	.	.	.	.	.	.	.	.	.	.	.	.	.	.	.	.	64c#\	.	64e/	.	64a/	.	.	.	.	.	.	.	.	.
.	.	.	.	.	.	.	.	.	.	.	.	.	.	.	.	.	.	.	64c#\	.	64e/	.	64a/	.	.	.	.	.	.	.	.	.
.	.	.	.	.	.	.	.	.	.	.	.	.	.	.	.	.	.	.	64c#\	.	64e/	.	64a/	.	.	.	.	.	.	.	.	.
.	.	.	.	.	.	.	.	.	.	.	.	.	.	.	.	.	.	.	64c#\	.	64e/	.	64a/	.	.	.	.	.	.	.	.	.
.	.	.	.	.	.	.	.	.	.	.	.	.	.	.	.	.	.	.	64c#\	.	64e/	.	64a/	.	.	.	.	.	.	.	.	.
.	.	.	.	.	.	.	.	.	.	.	.	.	.	.	.	.	.	.	64c#\JJJJ	[[	64e/JJJJ	[[	64a/JJJJ	[[	.	.	.	.	.	.	.	.
*	*	*	*	*	*	*	*	*	*	*	*	*	*	*	*	*	*	*	*Xtremolo	*	*Xtremolo	*	*Xtremolo	*	*	*	*	*	*	*	*	*
=73	=73	=73	=73	=73	=73	=73	=73	=73	=73	=73	=73	=73	=73	=73	=73	=73	=73	=73	=73	=73	=73	=73	=73	=73	=73	=73	=73	=73	=73	=73	=73	=73
*	*	*	*	*	*	*	*	*	*	*	*	*	*	*	*	*	*	*	*rep	*	*rep	*	*rep	*	*	*	*	*	*	*	*	*
!	!	!	!	!	!	!	!	!	!	!	!	!	!	!	!	!	!	!LO:DY:a	!	!	!	!	!	!	!	!	!	!	!	!	!	!
8A\L	.	8A\L	.	4.AA/_>	.	>]	4.E\_	.	>]	4.A/_	.	>]	4.e\_	.	>]	4.cc#\_	.	>]	64c#\LLLL	>	64e/LLLL	>	64a/LLLL	>	4.r	.	4.r	.	4.r	.	4.r	.
.	.	.	.	.	.	.	.	.	.	.	.	.	.	.	.	.	.	.	64c#\	.	64e/	.	64a/	.	.	.	.	.	.	.	.	.
.	.	.	.	.	.	.	.	.	.	.	.	.	.	.	.	.	.	.	64c#\	.	64e/	.	64a/	.	.	.	.	.	.	.	.	.
.	.	.	.	.	.	.	.	.	.	.	.	.	.	.	.	.	.	.	64c#\	.	64e/	.	64a/	.	.	.	.	.	.	.	.	.
.	.	.	.	.	.	.	.	.	.	.	.	.	.	.	.	.	.	.	64c#\	.	64e/	.	64a/	.	.	.	.	.	.	.	.	.
.	.	.	.	.	.	.	.	.	.	.	.	.	.	.	.	.	.	.	64c#\	.	64e/	.	64a/	.	.	.	.	.	.	.	.	.
.	.	.	.	.	.	.	.	.	.	.	.	.	.	.	.	.	.	.	64c#\	.	64e/	.	64a/	.	.	.	.	.	.	.	.	.
.	.	.	.	.	.	.	.	.	.	.	.	.	.	.	.	.	.	.	64c#\	.	64e/	.	64a/	.	.	.	.	.	.	.	.	.
8E\	.	8E\	.	.	.	.	.	.	.	.	.	.	.	.	.	.	.	.	64c#\	.	64e/	.	64a/	.	.	.	.	.	.	.	.	.
.	.	.	.	.	.	.	.	.	.	.	.	.	.	.	.	.	.	.	64c#\	.	64e/	.	64a/	.	.	.	.	.	.	.	.	.
.	.	.	.	.	.	.	.	.	.	.	.	.	.	.	.	.	.	.	64c#\	.	64e/	.	64a/	.	.	.	.	.	.	.	.	.
.	.	.	.	.	.	.	.	.	.	.	.	.	.	.	.	.	.	.	64c#\	.	64e/	.	64a/	.	.	.	.	.	.	.	.	.
.	.	.	.	.	.	.	.	.	.	.	.	.	.	.	.	.	.	.	64c#\	.	64e/	.	64a/	.	.	.	.	.	.	.	.	.
.	.	.	.	.	.	.	.	.	.	.	.	.	.	.	.	.	.	.	64c#\	.	64e/	.	64a/	.	.	.	.	.	.	.	.	.
.	.	.	.	.	.	.	.	.	.	.	.	.	.	.	.	.	.	.	64c#\	.	64e/	.	64a/	.	.	.	.	.	.	.	.	.
.	.	.	.	.	.	.	.	.	.	.	.	.	.	.	.	.	.	.	64c#\	.	64e/	.	64a/	.	.	.	.	.	.	.	.	.
8C#\J	.	8C#\J	.	.	.	.	.	.	.	.	.	.	.	.	.	.	.	.	64c#\	.	64e/	.	64a/	.	.	.	.	.	.	.	.	.
.	.	.	.	.	.	.	.	.	.	.	.	.	.	.	.	.	.	.	64c#\	.	64e/	.	64a/	.	.	.	.	.	.	.	.	.
.	.	.	.	.	.	.	.	.	.	.	.	.	.	.	.	.	.	.	64c#\	.	64e/	.	64a/	.	.	.	.	.	.	.	.	.
.	.	.	.	.	.	.	.	.	.	.	.	.	.	.	.	.	.	.	64c#\	.	64e/	.	64a/	.	.	.	.	.	.	.	.	.
.	.	.	.	.	.	.	.	.	.	.	.	.	.	.	.	.	.	.	64c#\	.	64e/	.	64a/	.	.	.	.	.	.	.	.	.
.	.	.	.	.	.	.	.	.	.	.	.	.	.	.	.	.	.	.	64c#\	.	64e/	.	64a/	.	.	.	.	.	.	.	.	.
.	.	.	.	.	.	.	.	.	.	.	.	.	.	.	.	.	.	.	64c#\	.	64e/	.	64a/	.	.	.	.	.	.	.	.	.
.	.	.	.	.	.	.	.	.	.	.	.	.	.	.	.	.	.	.	64c#\JJJJ	]]	64e/JJJJ	]]	64a/JJJJ	]]	.	.	.	.	.	.	.	.
*	*	*	*	*	*	*	*	*	*	*	*	*	*	*	*	*	*	*	*Xrep	*	*Xrep	*	*Xrep	*	*	*	*	*	*	*	*	*
=74	=74	=74	=74	=74	=74	=74	=74	=74	=74	=74	=74	=74	=74	=74	=74	=74	=74	=74	=74	=74	=74	=74	=74	=74	=74	=74	=74	=74	=74	=74	=74	=74
8AA|</)	.	8AA/)	.	8AA/]	.	.	8E\]	.	.	8A/]	.	.	8e\]	.	.	8cc#\]	.	.	8c#\	.	8e/	.	8a/	.	4.r	.	4.r	.	4.r	.	4.r	.
8r	.	8r	.	8r	.	.	8r	.	.	8r	.	.	8r	.	.	8r	.	.	8r	.	8r	.	8r	.	.	.	.	.	.	.	.	.
8r	.	8r	.	8r	.	.	8r	.	.	8r	.	.	8r	.	.	8r	.	.	8r	.	8r	.	8r	.	.	.	.	.	.	.	.	.
=75	=75	=75	=75	=75	=75	=75	=75	=75	=75	=75	=75	=75	=75	=75	=75	=75	=75	=75	=75	=75	=75	=75	=75	=75	=75	=75	=75	=75	=75	=75	=75	=75
8AA/	.	8AA|</	.	4.r	.	.	4.r	.	.	4.r	.	.	4.r	.	.	4.r	.	.	8A|</	.	8A|</	.	8A|</	.	4.r	.	4.r	.	4.r	.	4.r	.
8r	.	8r	.	.	.	.	.	.	.	.	.	.	.	.	.	.	.	.	8r	.	8r	.	8r	.	.	.	.	.	.	.	.	.
8r	.	8r	.	.	.	.	.	.	.	.	.	.	.	.	.	.	.	.	8r	.	8r	.	8r	.	.	.	.	.	.	.	.	.
==	==	==	==	==	==	==	==	==	==	==	==	==	==	==	==	==	==	==	==	==	==	==	==	==	==	==	==	==	==	==	==	==
*-	*-	*-	*-	*-	*-	*-	*-	*-	*-	*-	*-	*-	*-	*-	*-	*-	*-	*-	*-	*-	*-	*-	*-	*-	*-	*-	*-	*-	*-	*-	*-	*-
!!!system-decoration: {(g1)}{(g2)}{(g3)}{(g4)}
!!!ENC: Marcin Jachim
!!!END: 2021-08-05
!!!ENC: Kamil Watkowski
!!!END: 2021-09-06
!!!RDF**kern: > = above
!!!RDF**kern: < = below
!!!RDF**kern: | = vertical stroke